;FLAVOR:RepRap
;TIME:12396
;Filament used: 31.269m, 0m
;Layer height: 0.3
;MINX:153.087
;MINY:150.987
;MINZ:0.3
;MAXX:229.913
;MAXY:237.014
;MAXZ:88.8
;Generated with Cura_SteamEngine master
T0
M190 S75
M104 S240
M109 S240
M82 ;absolute extrusion mode
; Starting G-code:  
G1 Z15.0 F6000 ;Move the platform down 15mm  
;Prime the extruder  
G92 E0  
G1 F200 E3  
G92 E0
M83 ;relative extrusion mode
G1 F3000 E-1.5
;LAYER_COUNT:296
;LAYER:0
M107
G1 F600 Z0.8
G0 F3600 X153.73 Y152.362 Z0.8
;TYPE:SKIRT
G1 F600 Z0.3
G1 F3000 E1.5
G1 F1200 X154.054 Y152.067 E0.04509
G1 X154.427 Y151.835 E0.0452
G1 X154.836 Y151.675 E0.04519
G1 X155.438 Y151.58 E0.06271
G1 X155.814 Y151.57 E0.0387
G1 X177.856 Y151.57 E2.26809
G1 X178.532 Y151.58 E0.06957
G1 X179.065 Y151.634 E0.05513
G1 X181.867 Y151.951 E0.29016
G1 X184.584 Y152.181 E0.28058
G1 X187.346 Y152.338 E0.28466
G1 X190.104 Y152.415 E0.2839
G1 X192.868 Y152.415 E0.28441
G1 X195.627 Y152.337 E0.28401
G1 X198.387 Y152.18 E0.28446
G1 X201.105 Y151.948 E0.2807
G1 X202.805 Y151.743 E0.17619
G1 X202.988 Y151.738 E0.01884
G1 X204.237 Y151.595 E0.12936
G1 X204.742 Y151.571 E0.05202
G1 X226.826 Y151.569 E2.27241
G1 X227.525 Y151.579 E0.07193
G1 X227.961 Y151.625 E0.04511
G1 X228.382 Y151.75 E0.04519
G1 X228.773 Y151.949 E0.04514
G1 X229.122 Y152.215 E0.04515
G1 X229.417 Y152.54 E0.04516
G1 X229.648 Y152.913 E0.04515
G1 X229.808 Y153.322 E0.04519
G1 X229.902 Y153.924 E0.0627
G1 X229.913 Y154.347 E0.04354
G1 X229.913 Y200.803 E4.78025
G1 X229.897 Y202.055 E0.12884
G1 X229.863 Y202.919 E0.08897
G1 X229.84 Y203.283 E0.03753
G1 X229.761 Y204.201 E0.09481
G1 X229.723 Y204.544 E0.03551
G1 X229.6 Y205.46 E0.0951
G1 X229.546 Y205.801 E0.03553
G1 X229.367 Y206.78 E0.10241
G1 X229.314 Y207.034 E0.0267
G1 X229.081 Y208.036 E0.10586
G1 X229.004 Y208.331 E0.03137
G1 X228.757 Y209.203 E0.09326
G1 X228.653 Y209.54 E0.03629
G1 X228.368 Y210.389 E0.09215
G1 X228.231 Y210.768 E0.04147
G1 X227.868 Y211.695 E0.10244
G1 X227.78 Y211.902 E0.02314
G1 X227.381 Y212.801 E0.10121
G1 X227.246 Y213.084 E0.03226
G1 X226.798 Y213.973 E0.10244
G1 X226.665 Y214.219 E0.02878
G1 X226.192 Y215.054 E0.09875
G1 X226.025 Y215.332 E0.03337
G1 X225.501 Y216.161 E0.10091
G1 X225.339 Y216.403 E0.02997
G1 X224.789 Y217.185 E0.09838
G1 X224.602 Y217.438 E0.03237
G1 X224.008 Y218.201 E0.0995
G1 X223.828 Y218.422 E0.02933
G1 X223.211 Y219.14 E0.09741
G1 X222.946 Y219.434 E0.04073
G1 X222.336 Y220.078 E0.09127
G1 X222.122 Y220.29 E0.031
G1 X221.449 Y220.936 E0.09599
G1 X221.164 Y221.196 E0.0397
G1 X220.524 Y221.752 E0.08724
G1 X220.211 Y222.008 E0.04161
G1 X219.485 Y222.577 E0.09491
G1 X219.226 Y222.768 E0.03311
G1 X218.435 Y223.328 E0.09973
G1 X218.192 Y223.49 E0.03005
G1 X217.479 Y223.944 E0.08698
G1 X217.096 Y224.174 E0.04597
G1 X216.349 Y224.596 E0.08828
G1 X216.005 Y224.78 E0.04014
G1 X215.188 Y225.19 E0.09406
G1 X214.883 Y225.333 E0.03466
G1 X214.124 Y225.669 E0.08541
G1 X213.676 Y225.852 E0.0498
G1 X212.955 Y226.128 E0.07944
G1 X212.557 Y226.269 E0.04345
G1 X211.78 Y226.523 E0.08412
G1 X211.346 Y226.653 E0.04662
G1 X210.544 Y226.871 E0.08552
G1 X210.186 Y226.958 E0.03791
G1 X209.318 Y227.148 E0.09143
G1 X208.899 Y227.226 E0.04386
G1 X208.101 Y227.358 E0.08323
G1 X207.665 Y227.418 E0.04529
G1 X206.802 Y227.514 E0.08935
G1 X206.413 Y227.548 E0.04018
G1 X205.751 Y227.589 E0.06825
G1 X205.175 Y227.573 E0.05929
G1 X204.434 Y227.474 E0.07693
G1 X201.691 Y227.148 E0.28424
G1 X198.939 Y226.898 E0.28434
G1 X196.217 Y226.73 E0.28062
G1 X193.421 Y226.636 E0.28787
G1 X190.658 Y226.621 E0.28431
G1 X187.931 Y226.684 E0.28068
G1 X185.14 Y226.826 E0.28756
G1 X182.406 Y227.044 E0.28222
G1 X179.211 Y227.398 E0.33077
G1 X177.851 Y227.571 E0.14107
G1 X177.298 Y227.584 E0.05692
G1 X176.498 Y227.538 E0.08245
G1 X175.961 Y227.49 E0.05548
G1 X175.272 Y227.408 E0.0714
G1 X174.633 Y227.318 E0.0664
G1 X174.145 Y227.235 E0.05094
G1 X173.339 Y227.077 E0.08451
G1 X172.972 Y226.995 E0.03869
G1 X172.275 Y226.822 E0.0739
G1 X171.537 Y226.617 E0.07881
G1 X170.982 Y226.449 E0.05967
G1 X170.527 Y226.298 E0.04933
G1 X169.712 Y226.005 E0.08912
G1 X169.389 Y225.88 E0.03564
G1 X168.594 Y225.549 E0.08861
G1 X168.207 Y225.375 E0.04366
G1 X167.458 Y225.018 E0.08538
G1 X167.084 Y224.826 E0.04326
G1 X166.446 Y224.482 E0.07458
G1 X165.815 Y224.117 E0.07501
G1 X165.274 Y223.79 E0.06505
G1 X164.917 Y223.561 E0.04364
G1 X164.171 Y223.056 E0.0927
G1 X163.881 Y222.847 E0.03678
G1 X163.177 Y222.317 E0.09067
G1 X162.851 Y222.058 E0.04284
G1 X162.149 Y221.472 E0.09409
G1 X161.948 Y221.295 E0.02756
G1 X161.253 Y220.658 E0.09701
G1 X160.993 Y220.405 E0.03733
G1 X160.364 Y219.766 E0.09226
G1 X160.116 Y219.501 E0.03735
G1 X159.45 Y218.754 E0.10298
G1 X159.292 Y218.566 E0.02527
G1 X158.682 Y217.813 E0.09972
G1 X158.482 Y217.55 E0.034
G1 X157.954 Y216.827 E0.09212
G1 X157.712 Y216.476 E0.04387
G1 X157.196 Y215.692 E0.09658
G1 X157.074 Y215.495 E0.02384
G1 X156.595 Y214.685 E0.09683
G1 X156.379 Y214.299 E0.04551
G1 X155.929 Y213.445 E0.09933
G1 X155.816 Y213.213 E0.02655
G1 X155.442 Y212.416 E0.09059
G1 X155.284 Y212.052 E0.04083
G1 X154.911 Y211.142 E0.1012
G1 X154.814 Y210.887 E0.02807
G1 X154.509 Y210.036 E0.09302
G1 X154.384 Y209.654 E0.04136
G1 X154.098 Y208.706 E0.10189
G1 X154.034 Y208.469 E0.02526
G1 X153.799 Y207.538 E0.0988
G1 X153.724 Y207.204 E0.03522
G1 X153.513 Y206.15 E0.11061
G1 X153.483 Y205.971 E0.01868
G1 X153.328 Y204.956 E0.10565
G1 X153.294 Y204.681 E0.02851
G1 X153.188 Y203.65 E0.10665
G1 X153.168 Y203.393 E0.02652
G1 X153.112 Y202.384 E0.10398
G1 X153.102 Y202.042 E0.03521
G1 X153.087 Y200.851 E0.12256
G1 X153.087 Y154.649 E4.75412
G1 X153.096 Y153.96 E0.0709
G1 X153.142 Y153.524 E0.04511
G1 X153.266 Y153.103 E0.04516
G1 X153.464 Y152.711 E0.04519
G1 X153.73 Y152.362 E0.04515
G1 F3000 E-1.5
G1 F600 Z0.8
;MESH:roundPhoneDock.stl
G0 F3600 X176.439 Y223.049 Z0.8
;TYPE:WALL-INNER
G1 F600 Z0.3
G1 F3000 E1.5
G1 F1200 X176.411 Y223.047 E0.00289
G1 X175.445 Y222.925 E0.10019
G1 X174.448 Y222.745 E0.10425
G1 X173.417 Y222.506 E0.1089
G1 X172.453 Y222.231 E0.10315
G1 X171.458 Y221.889 E0.10826
G1 X170.526 Y221.518 E0.10322
G1 X169.566 Y221.077 E0.10871
G1 X168.671 Y220.611 E0.10383
G1 X167.746 Y220.068 E0.11037
G1 X166.908 Y219.519 E0.10309
G1 X166.051 Y218.894 E0.10914
G1 X165.227 Y218.226 E0.10915
G1 X164.448 Y217.532 E0.10735
G1 X163.739 Y216.832 E0.10252
G1 X162.993 Y216.019 E0.11354
G1 X162.341 Y215.238 E0.10469
G1 X161.681 Y214.363 E0.11278
G1 X161.098 Y213.5 E0.10717
G1 X160.56 Y212.624 E0.10578
G1 X160.048 Y211.685 E0.11005
G1 X159.574 Y210.713 E0.11128
G1 X159.159 Y209.735 E0.10932
G1 X158.791 Y208.75 E0.1082
G1 X158.464 Y207.721 E0.1111
G1 X158.199 Y206.731 E0.10546
G1 X157.964 Y205.637 E0.11514
G1 X157.782 Y204.556 E0.1128
G1 X157.664 Y203.555 E0.10371
G1 X157.589 Y202.473 E0.1116
G1 X157.561 Y201.386 E0.11189
G1 X157.561 Y156.044 E4.66563
G1 X176.439 Y156.044 E1.94252
G1 X176.439 Y223.049 E6.89472
G0 F3600 X177.264 Y223.674
G1 F1200 X177.019 Y223.922 E0.03587
G1 X176.347 Y223.87 E0.06935
G1 X175.31 Y223.739 E0.10755
G1 X174.273 Y223.552 E0.10843
G1 X173.222 Y223.308 E0.11102
G1 X172.214 Y223.02 E0.10787
G1 X171.163 Y222.66 E0.11431
G1 X170.188 Y222.271 E0.10802
G1 X169.209 Y221.821 E0.11087
G1 X168.273 Y221.334 E0.10857
G1 X167.315 Y220.772 E0.11429
G1 X166.432 Y220.193 E0.10865
G1 X165.546 Y219.547 E0.11283
G1 X164.696 Y218.858 E0.11259
G1 X163.893 Y218.142 E0.1107
G1 X163.135 Y217.394 E0.10958
G1 X162.376 Y216.567 E0.1155
G1 X161.689 Y215.744 E0.11031
G1 X161.022 Y214.86 E0.11395
G1 X160.404 Y213.946 E0.11353
G1 X159.845 Y213.035 E0.10998
G1 X159.306 Y212.047 E0.11581
G1 X158.832 Y211.075 E0.11128
G1 X158.392 Y210.04 E0.11572
G1 X158.012 Y209.021 E0.11191
G1 X157.671 Y207.949 E0.11575
G1 X157.395 Y206.917 E0.10992
G1 X157.153 Y205.79 E0.11861
G1 X156.968 Y204.693 E0.11447
G1 X156.842 Y203.623 E0.11086
G1 X156.764 Y202.507 E0.11511
G1 X156.736 Y201.407 E0.11323
G1 X156.736 Y155.219 E4.75268
G1 X177.264 Y155.219 E2.1123
G1 X177.264 Y223.674 E7.04392
G0 F3600 X178.088 Y224.012
;TYPE:WALL-OUTER
G1 F1200 X177.336 Y224.773 E0.11009
G1 X176.28 Y224.692 E0.10898
G1 X175.177 Y224.552 E0.11441
G1 X174.098 Y224.358 E0.11281
G1 X173.027 Y224.109 E0.11314
G1 X171.957 Y223.803 E0.11452
G1 X170.896 Y223.44 E0.11539
G1 X169.851 Y223.023 E0.11577
G1 X168.844 Y222.561 E0.114
G1 X167.875 Y222.056 E0.11244
G1 X166.884 Y221.475 E0.11821
G1 X165.965 Y220.872 E0.1131
G1 X165.042 Y220.199 E0.11754
G1 X164.166 Y219.489 E0.11603
G1 X163.328 Y218.742 E0.11551
G1 X162.541 Y217.965 E0.1138
G1 X161.749 Y217.102 E0.12053
G1 X161.047 Y216.261 E0.11272
G1 X160.355 Y215.343 E0.11829
G1 X159.707 Y214.387 E0.11884
G1 X159.134 Y213.451 E0.11293
G1 X158.57 Y212.417 E0.1212
G1 X158.085 Y211.423 E0.11381
G1 X157.629 Y210.352 E0.11978
G1 X157.232 Y209.285 E0.11715
G1 X156.879 Y208.177 E0.11966
G1 X156.591 Y207.099 E0.11482
G1 X156.343 Y205.948 E0.12115
G1 X156.155 Y204.83 E0.11666
G1 X156.021 Y203.691 E0.11801
G1 X155.94 Y202.542 E0.11852
G1 X155.912 Y201.407 E0.11683
G1 X155.912 Y154.395 E4.83747
G1 X178.088 Y154.395 E2.28188
G1 X178.088 Y224.012 E7.16349
G0 F3600 X177.948 Y224.154
G0 X177.181 Y223.515
G0 X177.164 Y223.515
G0 X175.625 Y222.127
;TYPE:SKIN
G1 F1200 X175.562 Y222.119 E0.00653
G1 X174.616 Y221.948 E0.09892
G1 X173.622 Y221.718 E0.10498
G1 X172.701 Y221.455 E0.09856
G1 X171.723 Y221.119 E0.10641
G1 X170.839 Y220.767 E0.09791
G1 X169.93 Y220.349 E0.10295
G1 X169.073 Y219.902 E0.09946
G1 X168.176 Y219.376 E0.107
G1 X167.376 Y218.853 E0.09835
G1 X166.531 Y218.236 E0.10766
G1 X165.76 Y217.611 E0.10213
G1 X165.005 Y216.938 E0.10407
G1 X164.326 Y216.267 E0.09823
G1 X163.593 Y215.468 E0.11157
G1 X162.985 Y214.739 E0.09768
G1 X162.341 Y213.887 E0.1099
G1 X161.79 Y213.07 E0.1014
G1 X161.267 Y212.218 E0.10287
G1 X160.763 Y211.295 E0.10821
G1 X160.316 Y210.379 E0.10488
G1 X159.92 Y209.446 E0.10429
G1 X159.56 Y208.482 E0.10589
G1 X159.24 Y207.474 E0.10882
G1 X158.994 Y206.551 E0.09829
G1 X158.76 Y205.465 E0.11431
G1 X158.588 Y204.447 E0.10624
G1 X158.475 Y203.487 E0.09946
G1 X158.403 Y202.442 E0.10778
G1 X158.375 Y201.386 E0.1087
G1 X158.375 Y156.858 E4.58187
G1 X175.625 Y156.858 E1.775
G1 X175.625 Y222.127 E6.71608
G0 F3600 X163.938 Y215.274
G1 F1200 X165.752 Y217.088 E0.26397
G1 X165.849 Y217.185
G0 F3600 X169.545 Y219.714
G1 F1200 X161.291 Y211.46 E1.20113
G1 X161.194 Y211.363
G0 F3600 X160.261 Y209.264
G1 F1200 X171.689 Y220.691 E1.66294
G1 X171.786 Y220.788
G0 F3600 X173.425 Y221.261
G1 F1200 X159.645 Y207.481 E2.00527
G0 F3600 X159.251 Y205.92
G1 F1200 X174.948 Y221.617 E2.28424
G0 F3600 X175.24 Y220.743
G1 F1200 X158.983 Y204.486 E2.36573
G0 F3600 X158.838 Y203.173
G1 F1200 X175.24 Y219.576 E2.3869
G0 F3600 X175.24 Y218.409
G1 F1200 X158.773 Y201.942 E2.39629
G0 F3600 X158.758 Y200.76
G1 F1200 X175.24 Y217.243 E2.39854
G0 F3600 X175.24 Y216.076
G1 F1200 X158.758 Y199.593 E2.39854
G0 F3600 X158.758 Y198.426
G1 F1200 X175.24 Y214.909 E2.39854
G0 F3600 X175.24 Y213.742
G1 F1200 X158.758 Y197.26 E2.39847
G0 F3600 X158.758 Y196.093
G1 F1200 X175.24 Y212.576 E2.39854
G0 F3600 X175.24 Y211.409
G1 F1200 X158.758 Y194.926 E2.39854
G0 F3600 X158.758 Y193.759
G1 F1200 X175.24 Y210.242 E2.39854
G0 F3600 X175.24 Y209.075
G1 F1200 X158.758 Y192.593 E2.39847
G0 F3600 X158.758 Y191.426
G1 F1200 X175.24 Y207.909 E2.39854
G0 F3600 X175.24 Y206.742
G1 F1200 X158.758 Y190.259 E2.39854
G0 F3600 X158.758 Y189.093
G1 F1200 X175.24 Y205.575 E2.39847
G0 F3600 X175.24 Y204.409
G1 F1200 X158.758 Y187.926 E2.39854
G0 F3600 X158.758 Y186.759
G1 F1200 X175.24 Y203.242 E2.39854
G0 F3600 X175.24 Y202.075
G1 F1200 X158.757 Y185.592 E2.39861
G0 F3600 X158.757 Y184.425
G1 F1200 X175.24 Y200.908 E2.39861
G0 F3600 X175.24 Y199.742
G1 F1200 X158.757 Y183.258 E2.39869
G0 F3600 X158.757 Y182.092
G1 F1200 X175.24 Y198.575 E2.39861
G0 F3600 X175.24 Y197.408
G1 F1200 X158.757 Y180.925 E2.39861
G0 F3600 X158.757 Y179.758
G1 F1200 X175.24 Y196.241 E2.39861
G0 F3600 X175.24 Y195.075
G1 F1200 X158.757 Y178.591 E2.39869
G0 F3600 X158.757 Y177.425
G1 F1200 X175.24 Y193.908 E2.39861
G0 F3600 X175.24 Y192.741
G1 F1200 X158.757 Y176.258 E2.39861
G0 F3600 X158.757 Y175.091
G1 F1200 X175.24 Y191.575 E2.39869
G0 F3600 X175.24 Y190.408
G1 F1200 X158.757 Y173.924 E2.39869
G0 F3600 X158.757 Y172.758
G1 F1200 X175.24 Y189.241 E2.39861
G0 F3600 X175.24 Y188.074
G1 F1200 X158.756 Y171.59 E2.39876
G0 F3600 X158.756 Y170.424
G1 F1200 X175.24 Y186.908 E2.39876
G0 F3600 X175.24 Y185.741
G1 F1200 X158.756 Y169.257 E2.39876
G0 F3600 X158.756 Y168.09
G1 F1200 X175.24 Y184.574 E2.39876
G0 F3600 X175.24 Y183.407
G1 F1200 X158.756 Y166.923 E2.39876
G0 F3600 X158.756 Y165.757
G1 F1200 X175.24 Y182.241 E2.39876
G0 F3600 X175.24 Y181.074
G1 F1200 X158.756 Y164.59 E2.39876
G0 F3600 X158.756 Y163.423
G1 F1200 X175.24 Y179.907 E2.39876
G0 F3600 X175.24 Y178.741
G1 F1200 X158.756 Y162.256 E2.39883
G0 F3600 X158.756 Y161.09
G1 F1200 X175.24 Y177.574 E2.39876
G0 F3600 X175.24 Y176.407
G1 F1200 X158.756 Y159.923 E2.39876
G0 F3600 X158.756 Y158.756
G1 F1200 X175.24 Y175.24 E2.39876
G0 F3600 X175.24 Y174.074
G1 F1200 X158.756 Y157.59 E2.39876
G0 F3600 X159.575 Y157.242
G1 F1200 X175.24 Y172.907 E2.27958
G0 F3600 X175.24 Y171.74
G1 F1200 X160.742 Y157.242 E2.10976
G0 F3600 X161.909 Y157.242
G1 F1200 X175.24 Y170.573 E1.93993
G0 F3600 X175.24 Y169.407
G1 F1200 X163.075 Y157.242 E1.77026
G0 F3600 X164.242 Y157.242
G1 F1200 X175.24 Y168.24 E1.60043
G0 F3600 X175.24 Y167.073
G1 F1200 X165.409 Y157.242 E1.43061
G0 F3600 X166.575 Y157.242
G1 F1200 X175.24 Y165.907 E1.26094
G0 F3600 X175.24 Y164.74
G1 F1200 X167.742 Y157.242 E1.09111
G0 F3600 X168.909 Y157.242
G1 F1200 X175.24 Y163.573 E0.92129
G0 F3600 X175.24 Y162.406
G1 F1200 X170.076 Y157.242 E0.75147
G0 F3600 X171.242 Y157.242
G1 F1200 X175.24 Y161.24 E0.58179
G0 F3600 X175.24 Y160.073
G1 F1200 X172.409 Y157.242 E0.41197
G0 F3600 X173.576 Y157.242
G1 F1200 X175.24 Y158.906 E0.24215
G0 F3600 X175.24 Y157.739
G1 F1200 X174.743 Y157.242 E0.07232
G1 F3000 E-1.5
G1 F600 Z0.8
G0 F3600 X174.743 Y157.242 Z0.8
G0 X206.561 Y223.049
;TYPE:WALL-INNER
G1 F600 Z0.3
G1 F3000 E1.5
G1 F1200 X206.561 Y156.044 E6.89472
G1 X225.439 Y156.043 E1.94252
G1 X225.439 Y201.356 E4.66264
G1 X225.411 Y202.487 E0.11641
G1 X225.336 Y203.555 E0.11017
G1 X225.215 Y204.575 E0.10569
G1 X225.032 Y205.674 E0.11464
G1 X224.807 Y206.707 E0.10879
G1 X224.532 Y207.737 E0.1097
G1 X224.207 Y208.757 E0.11016
G1 X223.841 Y209.739 E0.10784
G1 X223.415 Y210.733 E0.11128
G1 X222.953 Y211.682 E0.10861
G1 X222.443 Y212.615 E0.10941
G1 X221.884 Y213.528 E0.11016
G1 X221.298 Y214.389 E0.10717
G1 X220.668 Y215.225 E0.10771
G1 X219.988 Y216.043 E0.10946
G1 X219.28 Y216.812 E0.10756
G1 X218.547 Y217.535 E0.10594
G1 X217.776 Y218.224 E0.1064
G1 X216.943 Y218.897 E0.11019
G1 X216.09 Y219.518 E0.10857
G1 X215.262 Y220.064 E0.10206
G1 X214.348 Y220.6 E0.10903
G1 X213.434 Y221.076 E0.10604
G1 X212.474 Y221.517 E0.10871
G1 X211.56 Y221.881 E0.10123
G1 X210.534 Y222.233 E0.11161
G1 X209.561 Y222.511 E0.10413
G1 X208.603 Y222.736 E0.10126
G1 X207.556 Y222.924 E0.10946
G1 X206.561 Y223.049 E0.10319
G0 F3600 X206.642 Y223.871
G1 F1200 X205.983 Y223.922 E0.06801
G1 X205.736 Y223.673 E0.03609
G1 X205.736 Y155.219 E7.04382
G1 X226.264 Y155.218 E2.1123
G1 X226.264 Y201.376 E4.74959
G1 X226.236 Y202.522 E0.11796
G1 X226.158 Y203.629 E0.11419
G1 X226.029 Y204.711 E0.11212
G1 X225.844 Y205.819 E0.11559
G1 X225.608 Y206.905 E0.11436
G1 X225.325 Y207.965 E0.11289
G1 X224.986 Y209.029 E0.11491
G1 X224.608 Y210.042 E0.11126
G1 X224.162 Y211.084 E0.11663
G1 X223.686 Y212.062 E0.11192
G1 X223.155 Y213.033 E0.11388
G1 X222.584 Y213.966 E0.11256
G1 X221.97 Y214.868 E0.11228
G1 X221.312 Y215.742 E0.11257
G1 X220.607 Y216.589 E0.1134
G1 X219.883 Y217.375 E0.10996
G1 X219.103 Y218.144 E0.11271
G1 X218.313 Y218.851 E0.10909
G1 X217.44 Y219.556 E0.11546
G1 X216.563 Y220.195 E0.11166
G1 X215.698 Y220.765 E0.10659
G1 X214.746 Y221.323 E0.11355
G1 X213.791 Y221.82 E0.11078
G1 X212.812 Y222.27 E0.11087
G1 X211.837 Y222.659 E0.10802
G1 X210.791 Y223.017 E0.11376
G1 X209.771 Y223.309 E0.10917
