;FLAVOR:RepRap
;TIME:659
;Filament used: 0.710567m
;Layer height: 0.35
;MINX:187.094
;MINY:188.901
;MINZ:0.3
;MAXX:210.745
;MAXY:208.366
;MAXZ:38.35
;Generated with Cura_SteamEngine master
T0
M190 S60
M104 S235
M109 S235
M82 ;absolute extrusion mode
G28 ;Home
G1 Z15.0 F6000 ;Move the platform down 15mm
;Prime the extruder
G92 E0
G1 F200 E3
G92 E0
M83 ;relative extrusion mode
G1 F3000 E-8
;LAYER_COUNT:114
;LAYER:0
M107 P1
G1 F600 Z0.55
G0 F3600 X192.194 Y193.563 Z0.55
;TYPE:SKIRT
G1 F600 Z0.3
G1 F3000 E8
G1 F1200 X192.619 Y193.15 E0.06652
G1 X193.044 Y192.792 E0.06238
G1 X193.493 Y192.434 E0.06446
G1 X194.274 Y191.83 E0.11083
G1 X194.719 Y191.466 E0.06454
G1 X195.061 Y191.195 E0.04898
G1 X195.546 Y190.8 E0.07021
G1 X196.063 Y190.405 E0.07303
G1 X196.483 Y190.123 E0.05679
G1 X196.942 Y189.848 E0.06006
G1 X197.531 Y189.537 E0.07477
G1 X197.94 Y189.354 E0.0503
G1 X198.498 Y189.156 E0.06646
G1 X198.733 Y189.09 E0.0274
G1 X199.33 Y188.967 E0.06842
G1 X199.531 Y188.94 E0.02277
G1 X200.119 Y188.901 E0.06615
G1 X200.771 Y188.941 E0.07333
G1 X201.395 Y189.039 E0.0709
G1 X201.606 Y189.088 E0.02432
G1 X202.298 Y189.311 E0.08161
G1 X202.48 Y189.387 E0.02214
G1 X203.008 Y189.65 E0.06622
G1 X203.594 Y190.052 E0.07977
G1 X205.254 Y191.238 E0.22901
G1 X205.732 Y191.572 E0.06546
G1 X206.377 Y192.018 E0.08803
G1 X206.801 Y192.337 E0.05956
G1 X207.265 Y192.714 E0.06711
G1 X207.647 Y193.044 E0.05667
G1 X208.064 Y193.46 E0.06612
G1 X208.421 Y193.93 E0.06625
G1 X208.691 Y194.401 E0.06094
G1 X208.722 Y194.464 E0.00788
G1 X208.946 Y195.01 E0.06625
G1 X209.094 Y195.581 E0.06621
G1 X209.169 Y196.339 E0.0855
G1 X209.198 Y199.111 E0.31118
G1 X209.236 Y200.003 E0.10022
G1 X209.233 Y200.128 E0.01404
G1 X209.276 Y201.444 E0.1478
G1 X209.255 Y202.033 E0.06616
G1 X209.155 Y202.614 E0.06618
G1 X208.977 Y203.177 E0.06628
G1 X208.725 Y203.71 E0.06618
G1 X208.403 Y204.204 E0.06619
G1 X208.017 Y204.649 E0.06613
G1 X207.575 Y205.039 E0.06617
G1 X207.084 Y205.365 E0.06616
G1 X206.553 Y205.622 E0.06622
G1 X205.74 Y205.877 E0.09565
G1 X205.622 Y205.909 E0.01372
G1 X205.01 Y206.062 E0.07081
G1 X203.153 Y206.497 E0.2141
G1 X200.537 Y207.19 E0.30378
G1 X198.366 Y207.825 E0.25391
G1 X197.282 Y208.156 E0.12723
G1 X196.483 Y208.32 E0.09156
G1 X196.281 Y208.342 E0.02281
G1 X195.692 Y208.366 E0.06617
G1 X195.043 Y208.3 E0.07323
G1 X194.791 Y208.251 E0.02882
G1 X192.082 Y207.643 E0.31166
G1 X191.209 Y207.47 E0.0999
G1 X190.695 Y207.358 E0.05905
G1 X190.129 Y207.194 E0.06615
G1 X189.59 Y206.955 E0.06619
G1 X189.125 Y206.671 E0.06116
G1 X188.948 Y206.547 E0.02426
G1 X188.489 Y206.176 E0.06625
G1 X188.085 Y205.748 E0.06607
G1 X187.742 Y205.268 E0.06622
G1 X187.467 Y204.746 E0.06623
G1 X187.265 Y204.192 E0.06619
G1 X187.14 Y203.616 E0.06616
G1 X187.094 Y203.028 E0.06621
G1 X187.131 Y202.35 E0.07622
G1 X187.272 Y201.544 E0.09185
G1 X187.429 Y201.015 E0.06194
G1 X187.605 Y200.526 E0.05834
G1 X187.828 Y199.987 E0.06548
G1 X188.076 Y199.488 E0.06255
G1 X188.647 Y198.505 E0.12761
G1 X188.858 Y198.144 E0.04694
G1 X189.31 Y197.4 E0.09772
G1 X189.575 Y197.004 E0.05349
G1 X190.155 Y196.208 E0.11056
G1 X190.649 Y195.559 E0.09156
G1 X191.375 Y194.552 E0.13935
G1 X191.693 Y194.136 E0.05878
G1 X192.194 Y193.563 E0.08544
G0 F3600 X193.09 Y193.939
G1 F1200 X193.617 Y193.486 E0.07801
G1 X194.043 Y193.146 E0.06118
G1 X194.85 Y192.522 E0.11451
G1 X195.277 Y192.172 E0.06198
G1 X195.628 Y191.894 E0.05026
G1 X196.103 Y191.507 E0.06878
G1 X196.601 Y191.126 E0.07039
G1 X197.059 Y190.825 E0.06152
G1 X197.557 Y190.535 E0.06469
G1 X198.085 Y190.273 E0.06617
G1 X198.741 Y190.023 E0.0788
G1 X199.45 Y189.859 E0.08169
G1 X199.651 Y189.832 E0.02277
G1 X200.396 Y189.813 E0.08366
G1 X201.191 Y189.915 E0.08997
G1 X201.402 Y189.964 E0.02432
G1 X201.951 Y190.141 E0.06475
G1 X202.133 Y190.217 E0.02214
G1 X202.601 Y190.456 E0.05899
G1 X203.033 Y190.757 E0.0591
G1 X204.739 Y191.976 E0.23537
G1 X205.236 Y192.323 E0.06804
G1 X205.849 Y192.747 E0.08367
G1 X206.234 Y193.035 E0.05397
G1 X206.698 Y193.412 E0.06711
G1 X207.056 Y193.722 E0.05316
G1 X207.424 Y194.096 E0.0589
G1 X207.731 Y194.522 E0.05894
G1 X207.915 Y194.862 E0.0434
G1 X208.11 Y195.349 E0.05889
G1 X208.229 Y195.86 E0.0589
G1 X208.269 Y196.348 E0.05496
G1 X208.298 Y199.127 E0.31197
G1 X208.337 Y200.041 E0.10269
G1 X208.333 Y200.161 E0.01348
G1 X208.376 Y201.474 E0.14747
G1 X208.353 Y201.998 E0.05888
G1 X208.251 Y202.513 E0.05893
G1 X208.072 Y203.007 E0.05898
G1 X207.821 Y203.467 E0.05882
G1 X207.502 Y203.884 E0.05894
G1 X207.123 Y204.248 E0.05899
G1 X206.694 Y204.551 E0.05896
G1 X206.224 Y204.784 E0.05889
G1 X205.497 Y205.011 E0.08549
G1 X204.858 Y205.173 E0.074
G1 X202.928 Y205.626 E0.22254
G1 X200.292 Y206.324 E0.3061
G1 X198.153 Y206.95 E0.25018
G1 X197.02 Y207.296 E0.13298
G1 X196.386 Y207.426 E0.07265
G1 X196.184 Y207.448 E0.02281
G1 X195.659 Y207.465 E0.05896
G1 X195.135 Y207.402 E0.05924
G1 X194.988 Y207.372 E0.01684
G1 X192.292 Y206.767 E0.31016
G1 X191.4 Y206.591 E0.10206
G1 X190.886 Y206.479 E0.05905
G1 X190.384 Y206.328 E0.05885
G1 X189.909 Y206.103 E0.059
G1 X189.464 Y205.81 E0.05981
G1 X189.059 Y205.477 E0.05886
G1 X188.708 Y205.086 E0.05898
G1 X188.421 Y204.646 E0.05897
G1 X188.204 Y204.168 E0.05893
G1 X188.061 Y203.663 E0.05892
G1 X187.998 Y203.142 E0.05891
G1 X188.028 Y202.421 E0.081
G1 X188.14 Y201.782 E0.07282
G1 X188.394 Y200.986 E0.09379
G1 X188.657 Y200.335 E0.07881
G1 X188.854 Y199.94 E0.04955
G1 X189.418 Y198.97 E0.12595
G1 X189.627 Y198.612 E0.04653
G1 X190.079 Y197.868 E0.09772
G1 X190.303 Y197.533 E0.04524
G1 X190.871 Y196.753 E0.10831
G1 X191.371 Y196.097 E0.09259
G1 X192.105 Y195.078 E0.14097
G1 X192.583 Y194.474 E0.08646
G1 X193.09 Y193.939 E0.08274
G1 F3000 E-8
G1 F600 Z0.55
;MESH:Garuda and Vishnu.stl
G0 F3600 X199.945 Y195.604 Z0.55
;TYPE:WALL-INNER
G1 F600 Z0.3
G1 F3000 E8
G1 F1200 X199.449 Y196.318 E0.09759
G1 X199.431 Y196.304 E0.00256
G1 X198.518 Y196.657 E0.10988
G1 X198.822 Y196.011 E0.08014
G1 X198.983 Y195.476 E0.06272
G1 X199.192 Y195.19 E0.03976
G1 X199.816 Y194.767 E0.08462
G1 X200.187 Y194.613 E0.04509
G1 X200.254 Y194.671 E0.00995
G1 X200.529 Y195.33 E0.08016
G1 X200.831 Y195.833 E0.06586
G1 X201.234 Y196.16 E0.05826
G1 X201.478 Y196.259 E0.02956
G1 X201.529 Y196.604 E0.03915
G1 X201.298 Y196.329 E0.04032
G1 X201.018 Y196.25 E0.03266
G1 X199.945 Y195.604 E0.14059
G0 F3600 X198.003 Y197.131
G0 X196.515 Y200.459
G1 F1200 X196.192 Y201.174 E0.08807
G1 X195.835 Y201.494 E0.05382
G1 X195.121 Y201.752 E0.08522
G1 X194.848 Y202.095 E0.04921
G1 X194.667 Y202.063 E0.02063
G1 X194.075 Y202.038 E0.06651
G1 X193.84 Y201.948 E0.02825
G1 X193.972 Y201.851 E0.01839
G1 X194.287 Y201.254 E0.07577
G1 X194.312 Y200.642 E0.06876
G1 X194.204 Y200.321 E0.03802
G1 X194.355 Y200.107 E0.0294
G1 X195.13 Y200.184 E0.08742
G1 X195.887 Y199.693 E0.10128
G1 X196.188 Y199.049 E0.0798
G1 X196.141 Y198.261 E0.08861
G1 X196.044 Y197.849 E0.04751
G1 X196.437 Y197.376 E0.06903
G1 X196.612 Y197.246 E0.02447
G1 X197.091 Y197.032 E0.05889
G1 X197.59 Y197.074 E0.05621
G1 X197.73 Y197.027 E0.01658
G1 X197.779 Y198.346 E0.14816
G1 X197.825 Y198.515 E0.01966
G1 X197.095 Y200.172 E0.20325
G1 X196.956 Y200.497 E0.03968
G1 X196.515 Y200.459 E0.04969
G0 F3600 X198.003 Y197.131
G0 X200.023 Y195.967
G0 X201.772 Y196.736
G0 X202.494 Y196.973
;TYPE:WALL-OUTER
G1 F1200 X202.67 Y198.156 E0.13426
G1 X203.018 Y198.931 E0.09536
G1 X203.073 Y199.087 E0.01857
G1 X203.326 Y199.351 E0.04105
G1 X203.573 Y199.718 E0.04966
G1 X203.935 Y200.465 E0.09318
G1 X204.144 Y200.91 E0.05519
G1 X203.735 Y200.506 E0.06453
G1 X203.344 Y200.539 E0.04405
G1 X203.148 Y200.713 E0.02942
G1 X202.964 Y200.384 E0.04231
G1 X202.923 Y200.06 E0.03666
G1 X202.752 Y199.445 E0.07165
G1 X202.491 Y198.818 E0.07624
G1 X202.236 Y198.381 E0.0568
G1 X202.087 Y198.18 E0.02809
G1 X201.756 Y198.124 E0.03768
G1 X201.353 Y197.767 E0.06044
G1 X200.988 Y197.359 E0.06145
G1 X200.787 Y197.12 E0.03505
G1 X200.656 Y197.083 E0.01528
G1 X200.203 Y196.81 E0.05937
G1 X199.761 Y197.447 E0.08703
G1 X199.707 Y197.771 E0.03687
G1 X199.561 Y197.569 E0.02798
G1 X199.269 Y197.332 E0.04222
G1 X198.651 Y197.571 E0.07438
G1 X198.675 Y198.21 E0.07178
G1 X198.708 Y198.332 E0.01419
G1 X198.944 Y198.906 E0.06967
G1 X199.053 Y199.246 E0.04008
G1 X198.948 Y199.355 E0.01699
G1 X198.857 Y199.874 E0.05915
G1 X199.019 Y200.415 E0.06339
G1 X198.84 Y200.244 E0.02779
G1 X198.252 Y199.779 E0.08415
G1 X197.921 Y200.531 E0.09223
G1 X197.864 Y200.664 E0.01624
G1 X197.883 Y200.913 E0.02803
G1 X198.089 Y201.481 E0.06782
G1 X197.478 Y201.276 E0.07234
G1 X197.302 Y201.431 E0.02633
G1 X197.072 Y201.411 E0.02592
G1 X196.934 Y201.716 E0.03758
G1 X196.79 Y201.846 E0.02178
G1 X196.868 Y202.613 E0.08654
G1 X196.906 Y202.795 E0.02087
G1 X196.429 Y202.461 E0.06537
G1 X196.227 Y202.377 E0.02456
G1 X196.013 Y202.387 E0.02405
G1 X195.667 Y202.512 E0.0413
G1 X195.208 Y203.089 E0.08276
G1 X195.265 Y203.231 E0.01718
G1 X194.742 Y202.991 E0.06459
G1 X194.568 Y202.96 E0.01984
G1 X193.891 Y202.931 E0.07606
G1 X193.702 Y202.859 E0.0227
G1 X193.281 Y202.985 E0.04933
G1 X193.015 Y202.875 E0.03231
G1 X192.644 Y202.612 E0.05105
G1 X192.159 Y202.222 E0.06986
G1 X192.073 Y202.278 E0.01152
G1 X192.269 Y201.813 E0.05665
G1 X192.558 Y201.479 E0.04958
G1 X193.112 Y201.367 E0.06345
G1 X193.272 Y201.249 E0.02232
G1 X193.396 Y201.014 E0.02983
G1 X193.406 Y200.771 E0.0273
G1 X193.235 Y200.262 E0.06027
G1 X193.212 Y200.191 E0.00838
G1 X193.563 Y199.659 E0.07155
G1 X193.877 Y199.257 E0.05726
G1 X193.937 Y199.191 E0.01001
G1 X194.255 Y199.192 E0.0357
G1 X194.905 Y199.257 E0.07333
G1 X195.181 Y199.078 E0.03693
G1 X195.276 Y198.875 E0.02516
G1 X195.247 Y198.391 E0.05443
G1 X195.133 Y197.903 E0.05625
G1 X195.139 Y197.606 E0.03335
G1 X195.4 Y197.175 E0.05656
G1 X195.832 Y196.703 E0.07183
G1 X196.139 Y196.475 E0.04293
G1 X196.763 Y196.168 E0.07806
G1 X197.07 Y196.127 E0.03477
G1 X197.482 Y196.162 E0.04641
G1 X197.807 Y196.054 E0.03844
G1 X197.979 Y195.688 E0.0454
G1 X198.165 Y195.071 E0.07234
G1 X198.537 Y194.561 E0.07086
G1 X198.946 Y194.237 E0.05857
G1 X199.397 Y193.969 E0.05889
G1 X199.864 Y193.758 E0.05752
G1 X200.221 Y193.693 E0.04073
G1 X200.569 Y193.782 E0.04032
G1 X200.82 Y193.954 E0.03416
G1 X201.015 Y194.173 E0.03292
G1 X201.059 Y194.263 E0.01125
G1 X201.334 Y194.923 E0.08026
G1 X201.521 Y195.234 E0.04074
G1 X201.697 Y195.377 E0.02546
G1 X201.924 Y195.469 E0.02749
G1 X202.232 Y195.459 E0.03459
G1 X202.468 Y195.389 E0.02763
G1 X202.697 Y195.379 E0.02573
G1 X203.137 Y195.624 E0.05653
G1 X203.459 Y195.85 E0.04416
G1 X203.339 Y196.28 E0.05011
G1 X203.145 Y196.468 E0.03032
G1 X203.23 Y197.042 E0.06514
G1 X203.244 Y197.165 E0.0139
G1 X202.494 Y196.973 E0.0869
G0 F3600 X202.519 Y197.146
G0 X202.535 Y197.927
G0 X200.195 Y196.771
G0 X198.618 Y197.55
G0 X197.1 Y199.119
;TYPE:SKIN
G1 F1200 X197.1 Y197.488 E0.18308
G0 F3600 X195.3 Y200.574
G1 F1200 X195.3 Y201.241 E0.07487
G0 F3600 X195.24 Y201.07
G1 F3000 E-8
G1 F600 Z0.55
;MESH:NONMESH
G0 F3600 X195.24 Y201.07 Z0.55
G0 X209.317 Y201.093
;TIME_ELAPSED:17.942732
;LAYER:1
M106 S127.5 P1
;MESH:Garuda and Vishnu.stl
G0 F5400 X209.317 Y201.093 Z0.9
;TYPE:WALL-INNER
G1 F600 Z0.65
G1 F3000 E8
G1 F1800 X208.873 Y202.569 E0.13457
G1 X208.981 Y202.938 E0.03357
G1 X208.716 Y203.139 E0.02904
G1 X208.362 Y203.272 E0.03302
G1 X207.88 Y203.144 E0.04354
G1 X207.31 Y203.065 E0.05024
G1 X206.845 Y203.246 E0.04357
G1 X206.516 Y203.607 E0.04264
G1 X206.432 Y204.402 E0.0698
G1 X206.424 Y204.76 E0.03126
G1 X205.923 Y205.013 E0.049
G1 X205.368 Y205.212 E0.05148
G1 X204.933 Y205.33 E0.03935
G1 X204.335 Y205.403 E0.0526
G1 X204.097 Y205.421 E0.02084
G1 X203.665 Y205.141 E0.04495
G1 X203.056 Y205.097 E0.05331
G1 X202.721 Y205.163 E0.02981
G1 X202.29 Y205.437 E0.04459
G1 X201.961 Y206.384 E0.08753
G1 X201.491 Y206.418 E0.04114
G1 X200.867 Y206.499 E0.05494
G1 X200.245 Y206.527 E0.05436
G1 X199.612 Y206.564 E0.05536
G1 X199.453 Y206.287 E0.02789
G1 X198.893 Y205.889 E0.05998
G1 X198.087 Y206.138 E0.07365
G1 X197.697 Y206.294 E0.03667
G1 X197.336 Y206.3 E0.03152
G1 X196.909 Y206.222 E0.0379
G1 X195.935 Y205.903 E0.08948
G1 X195.154 Y205.574 E0.07399
G1 X195.153 Y205.261 E0.02733
G1 X195.018 Y204.75 E0.04614
G1 X194.462 Y204.417 E0.05658
G1 X193.806 Y204.381 E0.05736
G1 X193.449 Y204.454 E0.03181
G1 X193.086 Y204.336 E0.03333
G1 X192.397 Y203.93 E0.06982
G1 X192.13 Y203.678 E0.03205
G1 X192.084 Y203.578 E0.00961
G1 X192.071 Y203.062 E0.04507
G1 X192.249 Y202.545 E0.04774
G1 X192.473 Y202.079 E0.04514
G1 X192.622 Y201.841 E0.02452
G1 X192.789 Y201.803 E0.01495
G1 X193.499 Y201.656 E0.0633
G1 X193.843 Y200.949 E0.06865
G1 X193.669 Y200.424 E0.04829
G1 X193.598 Y200.288 E0.01339
G1 X193.781 Y200.009 E0.02913
G1 X194.176 Y199.486 E0.05722
G1 X194.206 Y199.454 E0.00383
G1 X194.598 Y199.511 E0.03458
G1 X195.28 Y199.405 E0.06026
G1 X195.601 Y198.654 E0.07131
G1 X195.458 Y197.953 E0.06246
G1 X195.449 Y197.789 E0.01434
G1 X195.524 Y197.603 E0.01751
G1 X195.76 Y197.286 E0.0345
G1 X196.098 Y196.962 E0.04088
G1 X196.503 Y196.703 E0.04197
G1 X196.758 Y196.623 E0.02333
G1 X197.344 Y196.635 E0.05117
G1 X197.783 Y196.486 E0.04048
G1 X198.108 Y196.097 E0.04426
G1 X198.309 Y195.352 E0.06737
G1 X198.32 Y195.324 E0.00263
G1 X198.708 Y194.934 E0.04803
G1 X199.104 Y194.601 E0.04517
G1 X199.551 Y194.321 E0.04605
G1 X200.025 Y194.125 E0.04478
G1 X200.299 Y194.037 E0.02513
G1 X200.495 Y194.102 E0.01803
G1 X200.771 Y194.367 E0.03341
G1 X201.046 Y194.813 E0.04575
G1 X201.405 Y195.366 E0.05756
G1 X201.724 Y195.731 E0.04232
G1 X202.067 Y195.933 E0.03475
G1 X202.808 Y195.908 E0.06473
G1 X203.229 Y196.144 E0.04214
G1 X203.669 Y196.498 E0.04931
G1 X204.132 Y196.765 E0.04666
G1 X204.249 Y196.854 E0.01283
G1 X204.348 Y197.034 E0.01794
G1 X204.39 Y197.649 E0.05382
G1 X204.618 Y198.102 E0.04428
G1 X205.218 Y198.445 E0.06034
G1 X205.924 Y198.204 E0.06513
G1 X206.06 Y198.287 E0.01391
G1 X206.525 Y198.69 E0.05372
G1 X206.738 Y198.912 E0.02686
G1 X206.931 Y199.248 E0.03383
G1 X206.986 Y199.613 E0.03223
G1 X207.048 Y200.237 E0.05475
G1 X207.636 Y200.709 E0.06583
G1 X208.498 Y200.677 E0.07531
G1 X208.766 Y200.713 E0.02361
G1 X209.039 Y200.826 E0.0258
G1 X209.494 Y201.128 E0.04768
G1 X209.317 Y201.093 E0.01575
G0 F5400 X209.735 Y201.787
;TYPE:WALL-OUTER
G1 F1200 X209.499 Y202.571 E0.07148
G1 X209.59 Y202.882 E0.02829
G1 X209.721 Y203.075 E0.02037
G1 X209.431 Y203.353 E0.03507
G1 X209.142 Y203.562 E0.03114
G1 X209.071 Y203.641 E0.00927
G1 X208.594 Y203.839 E0.04509
G1 X208.34 Y203.887 E0.02257
G1 X207.762 Y203.733 E0.05222
G1 X207.382 Y203.681 E0.03349
G1 X207.194 Y203.754 E0.01761
G1 X207.092 Y203.866 E0.01323
G1 X207.031 Y204.44 E0.0504
G1 X207.019 Y204.978 E0.04698
G1 X206.93 Y205.15 E0.01691
G1 X206.624 Y205.344 E0.03163
G1 X206.153 Y205.568 E0.04554
G1 X205.554 Y205.783 E0.05556
G1 X205.045 Y205.921 E0.04604
G1 X204.408 Y205.999 E0.05603
G1 X203.94 Y206.035 E0.04098
G1 X203.468 Y205.728 E0.04916
G1 X203.094 Y205.701 E0.03274
G1 X202.948 Y205.73 E0.013
G1 X202.789 Y205.831 E0.01645
G1 X202.616 Y206.332 E0.04628
G1 X202.432 Y206.852 E0.04816
G1 X202.094 Y206.975 E0.0314
G1 X201.552 Y207.015 E0.04745
G1 X200.925 Y207.097 E0.05521
G1 X200.276 Y207.126 E0.05672
G1 X199.682 Y207.16 E0.05195
G1 X199.366 Y207.189 E0.02771
G1 X199.231 Y207.107 E0.01379
G1 X198.998 Y206.7 E0.04095
G1 X198.787 Y206.55 E0.0226
G1 X198.287 Y206.704 E0.04568
G1 X197.817 Y206.892 E0.0442
G1 X197.288 Y206.901 E0.04619
G1 X196.756 Y206.804 E0.04721
G1 X196.261 Y206.643 E0.04545
G1 X195.747 Y206.473 E0.04727
G1 X195.255 Y206.292 E0.04577
G1 X194.774 Y206.056 E0.04678
G1 X194.556 Y205.905 E0.02315
G1 X194.553 Y205.34 E0.04933
G1 X194.5 Y205.139 E0.01815
G1 X194.281 Y205.008 E0.02228
G1 X193.851 Y204.984 E0.0376
G1 X193.414 Y205.074 E0.03895
G1 X192.857 Y204.893 E0.05113
G1 X192.379 Y204.646 E0.04698
G1 X192.022 Y204.401 E0.0378
G1 X191.635 Y204.035 E0.04651
G1 X191.495 Y203.733 E0.02906
G1 X191.453 Y203.26 E0.04146
G1 X191.479 Y202.939 E0.02812
G1 X191.695 Y202.312 E0.0579
G1 X191.94 Y201.802 E0.0494
G1 X192.118 Y201.499 E0.03068
G1 X192.312 Y201.296 E0.02452
G1 X192.668 Y201.215 E0.03188
