;FLAVOR:RepRap
;TIME:2817
;Filament used: 6.21481m
;Layer height: 0.35
;MINX:178.656
;MINY:132.65
;MINZ:0.3
;MAXX:224.421
;MAXY:177.35
;MAXZ:44.4
;Generated with Cura_SteamEngine master
T0
M190 S60
M104 S235
M109 S235
M82 ;absolute extrusion mode
G28 ;Home
G1 Z15.0 F6000 ;Move the platform down 15mm
;Prime the extruder
G92 E0
G1 F200 E3
G92 E0
M83 ;relative extrusion mode
G1 F3000 E-8
;LAYER_COUNT:127
;LAYER:0
M107 P1
G1 F600 Z0.55
G0 F3600 X183.287 Y138.985 Z0.55
;TYPE:SKIRT
G1 F600 Z0.3
G1 F3000 E8
G1 F1200 X183.534 Y138.674 E0.04458
G1 X183.884 Y138.256 E0.0612
G1 X184.316 Y137.777 E0.07241
G1 X184.817 Y137.272 E0.07985
G1 X185.007 Y137.095 E0.02915
G1 X185.878 Y136.333 E0.12991
G1 X186.321 Y135.983 E0.06338
G1 X186.799 Y135.634 E0.06644
G1 X187.346 Y135.266 E0.074
G1 X187.656 Y135.072 E0.04105
G1 X188.113 Y134.803 E0.05953
G1 X188.282 Y134.709 E0.02171
G1 X188.761 Y134.455 E0.06086
G1 X188.954 Y134.358 E0.02425
G1 X189.52 Y134.093 E0.07015
G1 X189.709 Y134.011 E0.02313
G1 X190.27 Y133.78 E0.0681
G1 X190.486 Y133.697 E0.02598
G1 X191.002 Y133.516 E0.06138
G1 X191.186 Y133.456 E0.02172
G1 X191.753 Y133.285 E0.06648
G1 X191.949 Y133.231 E0.02282
G1 X192.502 Y133.092 E0.06401
G1 X192.703 Y133.047 E0.02312
G1 X193.294 Y132.928 E0.06767
G1 X193.501 Y132.891 E0.0236
G1 X194.068 Y132.805 E0.06438
G1 X194.279 Y132.778 E0.02388
G1 X194.848 Y132.72 E0.0642
G1 X195.05 Y132.705 E0.02274
G1 X195.703 Y132.669 E0.07341
G1 X195.889 Y132.662 E0.02089
G1 X196.865 Y132.65 E0.10957
G1 X219.425 Y132.65 E2.53243
G1 X220.123 Y132.66 E0.07836
G1 X220.711 Y132.709 E0.06623
G1 X221.287 Y132.836 E0.06621
G1 X221.84 Y133.04 E0.06617
G1 X222.36 Y133.317 E0.06614
G1 X222.838 Y133.662 E0.06617
G1 X223.266 Y134.068 E0.06622
G1 X223.634 Y134.529 E0.06621
G1 X223.937 Y135.035 E0.0662
G1 X224.168 Y135.577 E0.06614
G1 X224.324 Y136.145 E0.06612
G1 X224.409 Y136.888 E0.08395
G1 X224.42 Y137.332 E0.04986
G1 X224.42 Y147.878 E1.18382
G1 X224.411 Y148.541 E0.07443
G1 X224.407 Y148.672 E0.01471
G1 X224.376 Y149.367 E0.07809
G1 X224.287 Y150.942 E0.17708
G1 X224.211 Y153.631 E0.30197
G1 X224.211 Y156.356 E0.30589
G1 X224.286 Y159.017 E0.29882
G1 X224.36 Y160.5 E0.16668
G1 X224.403 Y161.238 E0.08298
G1 X224.42 Y161.831 E0.06659
G1 X224.421 Y172.329 E1.17843
G1 X224.412 Y173.045 E0.08038
G1 X224.364 Y173.632 E0.06611
G1 X224.238 Y174.208 E0.06619
G1 X224.035 Y174.762 E0.06623
G1 X223.759 Y175.283 E0.06618
G1 X223.415 Y175.761 E0.06611
G1 X223.009 Y176.189 E0.06622
G1 X222.55 Y176.559 E0.06618
G1 X222.044 Y176.862 E0.0662
G1 X221.502 Y177.095 E0.06622
G1 X220.934 Y177.252 E0.06615
G1 X220.171 Y177.339 E0.0862
G1 X219.664 Y177.35 E0.05693
G1 X196.853 Y177.35 E2.5606
G1 X195.981 Y177.339 E0.09789
G1 X195.369 Y177.317 E0.06874
G1 X195.171 Y177.305 E0.02227
G1 X194.562 Y177.254 E0.0686
G1 X194.348 Y177.231 E0.02416
G1 X193.795 Y177.157 E0.06263
G1 X193.601 Y177.126 E0.02205
G1 X192.996 Y177.017 E0.06901
G1 X192.772 Y176.971 E0.02567
G1 X192.24 Y176.846 E0.06134
G1 X192.049 Y176.796 E0.02216
G1 X191.456 Y176.628 E0.06919
G1 X191.269 Y176.571 E0.02194
G1 X190.746 Y176.397 E0.06187
G1 X190.543 Y176.323 E0.02425
G1 X189.99 Y176.108 E0.0666
G1 X189.792 Y176.026 E0.02406
G1 X189.259 Y175.788 E0.06552
G1 X189.079 Y175.702 E0.02239
G1 X188.562 Y175.442 E0.06496
G1 X188.375 Y175.342 E0.0238
G1 X187.864 Y175.053 E0.0659
G1 X187.682 Y174.945 E0.02376
G1 X187.196 Y174.638 E0.06453
G1 X187.024 Y174.523 E0.02323
G1 X186.557 Y174.196 E0.064
G1 X186.376 Y174.062 E0.02528
G1 X185.907 Y173.696 E0.06678
G1 X185.742 Y173.561 E0.02393
G1 X185.32 Y173.197 E0.06256
G1 X185.189 Y173.079 E0.01979
G1 X184.8 Y172.715 E0.0598
G1 X184.637 Y172.555 E0.02564
G1 X184.208 Y172.109 E0.06947
G1 X184.054 Y171.94 E0.02567
G1 X183.686 Y171.515 E0.06311
G1 X183.549 Y171.349 E0.02416
G1 X183.189 Y170.889 E0.06557
G1 X183.06 Y170.715 E0.02431
G1 X182.732 Y170.25 E0.06388
G1 X182.38 Y169.708 E0.07255
G1 X182.181 Y169.377 E0.04335
G1 X181.92 Y168.917 E0.05937
G1 X181.814 Y168.718 E0.02531
G1 X181.558 Y168.207 E0.06416
G1 X181.466 Y168.012 E0.0242
G1 X181.234 Y167.485 E0.06464
G1 X180.977 Y166.83 E0.07898
G1 X180.872 Y166.535 E0.03515
G1 X180.707 Y166.029 E0.05974
G1 X180.645 Y165.82 E0.02447
G1 X180.5 Y165.286 E0.06211
G1 X180.347 Y164.61 E0.0778
G1 X180.277 Y164.247 E0.0415
G1 X180.188 Y163.701 E0.0621
G1 X180.158 Y163.485 E0.02448
G1 X180.096 Y162.931 E0.06258
G1 X180.051 Y162.262 E0.07527
G1 X180.053 Y161.732 E0.05949
G1 X180.069 Y161.484 E0.0279
G1 X180.213 Y158.777 E0.3043
G1 X180.283 Y156.05 E0.30621
G1 X180.274 Y153.36 E0.30196
G1 X180.19 Y150.659 E0.30334
G1 X180.05 Y148.246 E0.27132
G1 X180.054 Y147.618 E0.0705
G1 X180.104 Y146.992 E0.07049
G1 X180.164 Y146.475 E0.05842
G1 X180.262 Y145.834 E0.07279
G1 X180.364 Y145.293 E0.0618
G1 X180.517 Y144.651 E0.07408
G1 X180.758 Y143.808 E0.09842
G1 X180.858 Y143.504 E0.03592
G1 X181.035 Y143.009 E0.05901
G1 X181.116 Y142.801 E0.02506
G1 X181.336 Y142.273 E0.06421
G1 X181.634 Y141.635 E0.07904
G1 X181.965 Y141.001 E0.08028
G1 X182.415 Y140.236 E0.09963
G1 X182.534 Y140.05 E0.02479
G1 X182.877 Y139.541 E0.0689
G1 X183.287 Y138.985 E0.07755
G0 F3600 X184.007 Y139.526
G1 F1200 X184.224 Y139.252 E0.03923
G1 X184.574 Y138.834 E0.0612
G1 X184.981 Y138.383 E0.06819
G1 X185.449 Y137.912 E0.07453
G1 X185.599 Y137.772 E0.02303
G1 X186.47 Y137.01 E0.12991
G1 X186.867 Y136.697 E0.05675
G1 X187.327 Y136.363 E0.06381
G1 X187.844 Y136.016 E0.06989
G1 X188.113 Y135.848 E0.0356
G1 X188.57 Y135.579 E0.05953
G1 X188.704 Y135.504 E0.01724
G1 X189.183 Y135.25 E0.06086
G1 X189.336 Y135.174 E0.01918
G1 X189.902 Y134.909 E0.07015
G1 X190.051 Y134.843 E0.01829
G1 X190.612 Y134.612 E0.0681
G1 X190.784 Y134.546 E0.02068
G1 X191.3 Y134.365 E0.06138
G1 X191.446 Y134.318 E0.01722
G1 X192.013 Y134.147 E0.06648
G1 X192.168 Y134.104 E0.01806
G1 X192.721 Y133.965 E0.06401
G1 X192.881 Y133.929 E0.01841
G1 X193.472 Y133.81 E0.06767
G1 X193.636 Y133.781 E0.0187
G1 X194.203 Y133.695 E0.06438
G1 X194.37 Y133.674 E0.01889
G1 X194.939 Y133.616 E0.0642
G1 X195.099 Y133.603 E0.01802
G1 X195.752 Y133.567 E0.07341
G1 X195.9 Y133.562 E0.01662
G1 X196.876 Y133.55 E0.10957
G1 X219.412 Y133.55 E2.52973
G1 X220.11 Y133.56 E0.07836
G1 X220.633 Y133.608 E0.05896
G1 X221.143 Y133.734 E0.05897
G1 X221.627 Y133.936 E0.05887
G1 X222.076 Y134.209 E0.05899
G1 X222.477 Y134.547 E0.05887
G1 X222.823 Y134.943 E0.05903
G1 X223.105 Y135.386 E0.05895
G1 X223.316 Y135.866 E0.05886
G1 X223.452 Y136.373 E0.05892
G1 X223.51 Y136.914 E0.06108
G1 X223.52 Y137.332 E0.04694
G1 X223.52 Y147.866 E1.18247
G1 X223.508 Y148.633 E0.08611
G1 X223.478 Y149.316 E0.07674
G1 X223.389 Y150.9 E0.17809
G1 X223.311 Y153.642 E0.30792
G1 X223.311 Y156.345 E0.30342
G1 X223.389 Y159.102 E0.30961
G1 X223.463 Y160.58 E0.16612
G1 X223.509 Y161.39 E0.09107
G1 X223.52 Y161.831 E0.04952
G1 X223.521 Y172.317 E1.17708
G1 X223.512 Y173.033 E0.08038
G1 X223.465 Y173.556 E0.05894
G1 X223.34 Y174.066 E0.05894
G1 X223.139 Y174.551 E0.05893
G1 X222.866 Y175 E0.05899
G1 X222.529 Y175.402 E0.05888
G1 X222.134 Y175.748 E0.05895
G1 X221.692 Y176.031 E0.05891
G1 X221.212 Y176.243 E0.0589
G1 X220.705 Y176.38 E0.05895
G1 X220.149 Y176.439 E0.06276
G1 X219.664 Y176.45 E0.05446
G1 X196.864 Y176.45 E2.55937
G1 X195.906 Y176.437 E0.10755
G1 X195.404 Y176.418 E0.05639
G1 X195.246 Y176.408 E0.01777
G1 X194.637 Y176.357 E0.0686
G1 X194.467 Y176.339 E0.01919
G1 X193.914 Y176.265 E0.06263
G1 X193.76 Y176.24 E0.01751
G1 X193.155 Y176.131 E0.06901
G1 X192.978 Y176.095 E0.02028
G1 X192.446 Y175.97 E0.06134
G1 X192.295 Y175.93 E0.01753
G1 X191.702 Y175.762 E0.06919
G1 X191.553 Y175.717 E0.01747
G1 X191.03 Y175.543 E0.06187
G1 X190.869 Y175.485 E0.01921
G1 X190.316 Y175.27 E0.0666
G1 X190.159 Y175.204 E0.01912
G1 X189.626 Y174.966 E0.06552
G1 X189.483 Y174.898 E0.01777
G1 X188.966 Y174.638 E0.06496
G1 X188.818 Y174.559 E0.01883
G1 X188.307 Y174.27 E0.0659
G1 X188.162 Y174.184 E0.01892
G1 X187.676 Y173.877 E0.06453
G1 X187.54 Y173.786 E0.01837
G1 X187.073 Y173.459 E0.064
G1 X186.929 Y173.353 E0.02007
G1 X186.46 Y172.987 E0.06678
G1 X186.33 Y172.879 E0.01897
G1 X185.908 Y172.515 E0.06256
G1 X185.804 Y172.422 E0.01566
G1 X185.415 Y172.058 E0.0598
G1 X185.286 Y171.931 E0.02032
G1 X184.857 Y171.485 E0.06947
G1 X184.735 Y171.351 E0.02034
G1 X184.367 Y170.926 E0.06311
G1 X184.258 Y170.794 E0.01922
G1 X183.898 Y170.334 E0.06557
G1 X183.796 Y170.197 E0.01917
G1 X183.468 Y169.732 E0.06388
G1 X183.138 Y169.223 E0.06809
G1 X182.963 Y168.933 E0.03802
G1 X182.702 Y168.473 E0.05937
G1 X182.618 Y168.315 E0.02009
G1 X182.362 Y167.804 E0.06416
G1 X182.289 Y167.649 E0.01923
G1 X182.057 Y167.122 E0.06464
G1 X181.818 Y166.508 E0.07396
G1 X181.728 Y166.256 E0.03004
G1 X181.563 Y165.75 E0.05974
G1 X181.514 Y165.584 E0.01943
G1 X181.369 Y165.05 E0.06211
G1 X181.227 Y164.419 E0.0726
G1 X181.165 Y164.102 E0.03626
G1 X181.076 Y163.556 E0.0621
G1 X181.052 Y163.385 E0.01938
G1 X180.99 Y162.831 E0.06258
G1 X180.95 Y162.21 E0.06985
G1 X180.967 Y161.542 E0.07501
G1 X181.113 Y158.812 E0.30689
G1 X181.183 Y156.07 E0.3079
G1 X181.174 Y153.329 E0.30769
G1 X181.09 Y150.616 E0.30469
G1 X180.949 Y148.194 E0.27234
G1 X180.953 Y147.652 E0.06084
G1 X181.001 Y147.072 E0.06533
G1 X181.095 Y146.314 E0.08574
G1 X181.248 Y145.461 E0.09728
G1 X181.39 Y144.869 E0.06834
G1 X181.621 Y144.065 E0.0939
G1 X181.705 Y143.807 E0.03046
G1 X181.882 Y143.312 E0.05901
G1 X181.946 Y143.147 E0.01987
G1 X182.166 Y142.619 E0.06421
G1 X182.446 Y142.022 E0.07402
G1 X182.758 Y141.427 E0.07542
G1 X183.186 Y140.701 E0.0946
G1 X183.28 Y140.553 E0.01968
G1 X183.623 Y140.044 E0.0689
G1 X184.007 Y139.526 E0.07238
G1 F3000 E-8
G1 F600 Z0.55
;MESH:roundPhoneDock.stl
G0 F3600 X218.72 Y147.15 Z0.55
;TYPE:WALL-INNER
G1 F600 Z0.3
G1 F3000 E8
G1 F1200 X185.818 Y147.15 E3.69335
G1 X185.924 Y146.521 E0.0716
G1 X186.165 Y145.585 E0.1085
G1 X186.327 Y145.111 E0.05623
G1 X186.525 Y144.615 E0.05995
G1 X186.955 Y143.737 E0.10974
G1 X187.206 Y143.309 E0.0557
G1 X187.494 Y142.87 E0.05894
G1 X187.78 Y142.477 E0.05456
G1 X188.127 Y142.052 E0.06159
G1 X188.434 Y141.707 E0.05184
G1 X188.802 Y141.333 E0.0589
G1 X189.186 Y140.983 E0.05832
G1 X189.566 Y140.665 E0.05562
G1 X189.994 Y140.346 E0.05992
G1 X190.392 Y140.074 E0.05411
G1 X190.852 Y139.794 E0.06045
G1 X191.281 Y139.559 E0.05491
G1 X191.767 Y139.324 E0.0606
G1 X192.22 Y139.129 E0.05536
G1 X192.707 Y138.95 E0.05824
G1 X193.227 Y138.784 E0.06127
G1 X193.702 Y138.657 E0.05519
G1 X194.21 Y138.548 E0.05832
G1 X194.734 Y138.461 E0.05963
G1 X195.258 Y138.398 E0.05924
G1 X195.764 Y138.364 E0.05693
G1 X196.309 Y138.35 E0.0612
G1 X218.72 Y138.35 E2.5157
G1 X218.72 Y147.15 E0.98783
G0 F3600 X218.65 Y147.08
G0 X219.62 Y148.05
;TYPE:WALL-OUTER
G1 F1200 X185.073 Y148.05 E3.878
G1 X184.846 Y147.825 E0.03588
G1 X184.878 Y147.412 E0.0465
G1 X184.946 Y146.868 E0.06154
G1 X185.042 Y146.337 E0.06057
G1 X185.16 Y145.83 E0.05843
G1 X185.313 Y145.294 E0.06257
G1 X185.484 Y144.793 E0.05942
G1 X185.695 Y144.266 E0.06372
G1 X185.912 Y143.791 E0.05862
G1 X186.164 Y143.308 E0.06115
G1 X186.453 Y142.815 E0.06415
G1 X186.741 Y142.376 E0.05894
G1 X187.077 Y141.915 E0.06404
G1 X187.438 Y141.472 E0.06415
G1 X187.775 Y141.093 E0.05693
G1 X188.172 Y140.69 E0.0635
G1 X188.601 Y140.299 E0.06516
G1 X189.012 Y139.955 E0.06016
G1 X189.456 Y139.624 E0.06217
G1 X189.916 Y139.31 E0.06252
G1 X190.389 Y139.022 E0.06216
G1 X190.875 Y138.756 E0.06219
G1 X191.395 Y138.504 E0.06486
G1 X191.884 Y138.294 E0.05974
G1 X192.426 Y138.094 E0.06485
G1 X192.96 Y137.924 E0.06291
G1 X193.494 Y137.781 E0.06206
G1 X194.05 Y137.662 E0.06383
G1 X194.609 Y137.569 E0.06361
G1 X195.168 Y137.502 E0.0632
G1 X195.727 Y137.464 E0.06289
G1 X196.287 Y137.45 E0.06288
G1 X219.62 Y137.45 E2.6192
G1 X219.62 Y148.05 E1.18988
G0 F3600 X219.445 Y148.05
G0 X218.65 Y147.08
G0 X217.83 Y146.26
;TYPE:SKIN
G1 F1200 X186.91 Y146.26 E3.47086
G1 X187.161 Y145.421 E0.0983
G1 X187.341 Y144.972 E0.0543
G1 X187.738 Y144.16 E0.10146
G1 X188.226 Y143.377 E0.10357
G1 X188.481 Y143.027 E0.04861
G1 X188.817 Y142.615 E0.05968
G1 X189.069 Y142.332 E0.04254
G1 X189.431 Y141.964 E0.05795
G1 X190.116 Y141.366 E0.10207
G1 X190.875 Y140.822 E0.10482
G1 X191.69 Y140.35 E0.10572
G1 X192.145 Y140.129 E0.05678
G1 X192.991 Y139.794 E0.10214
G1 X193.479 Y139.638 E0.05751
G1 X194.368 Y139.424 E0.10264
G1 X195.347 Y139.284 E0.11101
G1 X195.799 Y139.254 E0.05085
G1 X196.332 Y139.24 E0.05985
G1 X217.83 Y139.24 E2.41321
G1 X217.83 Y146.26 E0.78802
G0 F3600 X216.9 Y145.84
G1 F1200 X216.9 Y139.659 E0.69384
G0 F3600 X216 Y139.659
G1 F1200 X216 Y145.84 E0.69384
G0 F3600 X215.1 Y145.84
G1 F1200 X215.1 Y139.659 E0.69384
G0 F3600 X214.2 Y139.659
G1 F1200 X214.2 Y145.84 E0.69384
G0 F3600 X213.3 Y145.84
G1 F1200 X213.3 Y139.659 E0.69384
G0 F3600 X212.4 Y139.659
G1 F1200 X212.4 Y145.84 E0.69384
G0 F3600 X211.5 Y145.84
G1 F1200 X211.5 Y139.659 E0.69384
G0 F3600 X210.6 Y139.659
G1 F1200 X210.6 Y145.84 E0.69384
G0 F3600 X209.7 Y145.84
G1 F1200 X209.7 Y139.659 E0.69384
G0 F3600 X208.8 Y139.659
G1 F1200 X208.8 Y145.84 E0.69384
G0 F3600 X207.9 Y145.84
G1 F1200 X207.9 Y139.659 E0.69384
G0 F3600 X207 Y139.659
G1 F1200 X207 Y145.84 E0.69384
G0 F3600 X206.1 Y145.84
G1 F1200 X206.1 Y139.659 E0.69384
G0 F3600 X205.2 Y139.659
G1 F1200 X205.2 Y145.84 E0.69384
G0 F3600 X204.3 Y145.84
G1 F1200 X204.3 Y139.659 E0.69384
G0 F3600 X203.4 Y139.659
G1 F1200 X203.4 Y145.84 E0.69384
G0 F3600 X202.5 Y145.84
G1 F1200 X202.5 Y139.659 E0.69384
G0 F3600 X201.6 Y139.659
G1 F1200 X201.6 Y145.84 E0.69384
G0 F3600 X200.7 Y145.84
G1 F1200 X200.7 Y139.659 E0.69384
G0 F3600 X199.8 Y139.659
G1 F1200 X199.8 Y145.84 E0.69384
G0 F3600 X198.9 Y145.84
G1 F1200 X198.9 Y139.659 E0.69384
G0 F3600 X198 Y139.659
G1 F1200 X198 Y145.84 E0.69384
G0 F3600 X197.1 Y145.84
G1 F1200 X197.1 Y139.659 E0.69384
G0 F3600 X196.2 Y139.663
G1 F1200 X196.2 Y145.84 E0.69339
G0 F3600 X195.3 Y145.84
G1 F1200 X195.3 Y139.714 E0.68766
G0 F3600 X194.4 Y139.849
G1 F1200 X194.4 Y145.84 E0.67251
G0 F3600 X193.5 Y145.84
G1 F1200 X193.5 Y140.072 E0.64748
G0 F3600 X192.6 Y140.4
G1 F1200 X192.6 Y145.84 E0.61066
G0 F3600 X191.7 Y145.84
G1 F1200 X191.7 Y140.829 E0.5625
G0 F3600 X190.8 Y141.392
G1 F1200 X190.8 Y145.84 E0.4993
G0 F3600 X189.9 Y145.84
G1 F1200 X189.9 Y142.111 E0.41859
G0 F3600 X189 Y143.054
G1 F1200 X189 Y145.84 E0.31274
G0 F3600 X188.1 Y145.84
G1 F1200 X188.1 Y144.375 E0.16445
G1 F3000 E-8
G1 F600 Z0.55
G0 F3600 X188.1 Y144.375 Z0.55
G0 X218.721 Y171.65
;TYPE:WALL-INNER
G1 F600 Z0.3
G1 F3000 E8
G1 F1200 X196.31 Y171.65 E2.5157
G1 X195.753 Y171.636 E0.06254
G1 X195.239 Y171.601 E0.05783
G1 X194.712 Y171.538 E0.05958
G1 X194.215 Y171.454 E0.05658
G1 X193.702 Y171.342 E0.05894
G1 X193.199 Y171.209 E0.0584
G1 X192.702 Y171.05 E0.05858
G1 X192.238 Y170.877 E0.05559
G1 X191.75 Y170.668 E0.05959
G1 X191.267 Y170.433 E0.06029
G1 X190.849 Y170.204 E0.0535
G1 X190.385 Y169.921 E0.06101
G1 X189.971 Y169.639 E0.05623
G1 X189.551 Y169.322 E0.05907
G1 X189.178 Y169.012 E0.05444
G1 X188.809 Y168.672 E0.05632
G1 X188.436 Y168.294 E0.05961
G1 X188.112 Y167.934 E0.05437
G1 X187.774 Y167.514 E0.06052
G1 X187.497 Y167.134 E0.05279
G1 X187.21 Y166.697 E0.05869
G1 X186.966 Y166.281 E0.05414
G1 X186.722 Y165.814 E0.05915
G1 X186.52 Y165.372 E0.05455
G1 X186.331 Y164.9 E0.05707
G1 X186.174 Y164.439 E0.05467
G1 X186.032 Y163.944 E0.05781
G1 X185.929 Y163.503 E0.05084
G1 X185.833 Y162.971 E0.06068
G1 X185.818 Y162.85 E0.01369
G1 X218.72 Y162.85 E3.69335
G1 X218.721 Y171.65 E0.98783
G0 F3600 X218.651 Y171.58
G0 X219.621 Y172.55
;TYPE:WALL-OUTER
G1 F1200 X196.288 Y172.55 E2.6192
G1 X195.714 Y172.536 E0.06445
G1 X195.152 Y172.497 E0.06324
G1 X194.597 Y172.431 E0.06274
G1 X194.041 Y172.337 E0.0633
G1 X193.487 Y172.216 E0.06365
G1 X192.95 Y172.074 E0.06235
G1 X192.411 Y171.902 E0.06351
G1 X191.888 Y171.707 E0.06266
G1 X191.377 Y171.487 E0.06245
G1 X190.868 Y171.24 E0.06351
G1 X190.382 Y170.974 E0.06219
G1 X189.898 Y170.678 E0.06369
G1 X189.456 Y170.377 E0.06003
G1 X188.995 Y170.03 E0.06477
G1 X188.586 Y169.689 E0.05978
G1 X188.175 Y169.312 E0.06261
G1 X187.782 Y168.913 E0.06287
