;FLAVOR:RepRap
;TIME:9118
;Filament used: 36.8755m
;Layer height: 0.35
;MINX:159.65
;MINY:155.632
;MINZ:0.3
;MAXX:240.35
;MAXY:242.989
;MAXZ:88.5
;Generated with Cura_SteamEngine master
T0
M190 S59
M104 S213
M109 S213
M82 ;absolute extrusion mode
G28 ;Home
G1 Z15.0 F6000 ;Move the platform down 15mm
;Prime the extruder
G92 E0
G1 F235 E3
G92 E0
M83 ;relative extrusion mode
G1 F3000 E-8
;LAYER_COUNT:254
;LAYER:0
M107 P1
G1 F600 Z0.55
G0 F3600 X161.063 Y156.791 Z0.55
;TYPE:SKIRT
G1 F600 Z0.3
G1 F3000 E8
G1 F4500 X161.523 Y156.422 E0.0662
G1 X162.029 Y156.119 E0.0662
G1 X162.571 Y155.887 E0.06618
G1 X163.139 Y155.73 E0.06615
G1 X163.881 Y155.644 E0.08385
G1 X164.314 Y155.633 E0.04862
G1 X186.384 Y155.633 E2.47742
G1 X187.06 Y155.643 E0.07589
G1 X187.84 Y155.715 E0.08793
G1 X190.542 Y156.022 E0.30526
G1 X193.214 Y156.249 E0.30102
G1 X195.939 Y156.403 E0.30638
G1 X198.622 Y156.478 E0.30129
G1 X201.349 Y156.478 E0.30611
G1 X204.031 Y156.402 E0.30118
G1 X206.758 Y156.247 E0.30661
G1 X209.407 Y156.021 E0.29844
G1 X211.073 Y155.82 E0.18837
G1 X211.312 Y155.808 E0.02686
G1 X212.516 Y155.67 E0.13604
G1 X213.185 Y155.635 E0.0752
G1 X213.314 Y155.633 E0.01448
G1 X235.353 Y155.632 E2.47394
G1 X236.052 Y155.642 E0.07847
G1 X236.64 Y155.691 E0.06623
G1 X237.215 Y155.818 E0.0661
G1 X237.769 Y156.022 E0.06627
G1 X238.289 Y156.299 E0.06614
G1 X238.767 Y156.644 E0.06617
G1 X239.195 Y157.05 E0.06622
G1 X239.563 Y157.511 E0.06621
G1 X239.866 Y158.017 E0.0662
G1 X240.097 Y158.559 E0.06614
G1 X240.253 Y159.127 E0.06612
G1 X240.338 Y159.87 E0.08395
G1 X240.35 Y160.347 E0.05356
G1 X240.35 Y206.826 E5.21741
G1 X240.336 Y208.013 E0.13325
G1 X240.302 Y208.937 E0.10379
G1 X240.27 Y209.449 E0.05759
G1 X240.196 Y210.312 E0.09723
G1 X240.143 Y210.8 E0.0551
G1 X240.014 Y211.76 E0.10873
G1 X239.951 Y212.148 E0.04412
G1 X239.764 Y213.169 E0.11652
G1 X239.701 Y213.47 E0.03452
G1 X239.456 Y214.523 E0.12136
G1 X239.368 Y214.858 E0.03888
G1 X239.11 Y215.766 E0.10596
G1 X238.99 Y216.156 E0.0458
G1 X238.692 Y217.043 E0.10504
G1 X238.535 Y217.474 E0.05149
G1 X238.193 Y218.348 E0.10535
G1 X238.051 Y218.688 E0.04136
G1 X237.633 Y219.627 E0.11538
G1 X237.476 Y219.956 E0.04092
G1 X237.004 Y220.89 E0.11747
G1 X236.852 Y221.171 E0.03586
G1 X236.412 Y221.95 E0.10043
G1 X236.163 Y222.365 E0.05433
G1 X235.615 Y223.231 E0.11504
G1 X235.425 Y223.515 E0.03836
G1 X234.847 Y224.337 E0.1128
G1 X234.632 Y224.626 E0.04043
G1 X234.014 Y225.42 E0.11294
G1 X233.798 Y225.684 E0.03829
G1 X233.152 Y226.436 E0.11128
G1 X232.852 Y226.767 E0.05015
G1 X232.214 Y227.439 E0.10402
G1 X231.965 Y227.686 E0.03937
G1 X231.257 Y228.365 E0.11012
G1 X230.935 Y228.658 E0.04887
G1 X230.254 Y229.248 E0.10114
G1 X229.907 Y229.531 E0.05026
G1 X229.14 Y230.132 E0.10938
G1 X228.846 Y230.349 E0.04102
G1 X228.013 Y230.937 E0.11446
G1 X227.735 Y231.122 E0.03748
G1 X226.978 Y231.604 E0.10074
G1 X226.551 Y231.86 E0.05589
G1 X225.854 Y232.255 E0.08993
G1 X225.376 Y232.511 E0.06087
G1 X224.617 Y232.893 E0.09538
G1 X224.167 Y233.105 E0.05584
G1 X223.359 Y233.461 E0.09911
G1 X222.868 Y233.661 E0.05951
G1 X222.147 Y233.937 E0.08666
G1 X221.659 Y234.11 E0.05812
G1 X220.779 Y234.396 E0.10387
G1 X220.354 Y234.522 E0.04976
G1 X219.552 Y234.74 E0.09329
G1 X219.101 Y234.85 E0.05211
G1 X218.299 Y235.026 E0.09217
G1 X217.716 Y235.137 E0.06662
G1 X216.868 Y235.277 E0.09648
G1 X216.381 Y235.343 E0.05517
G1 X215.572 Y235.434 E0.09139
G1 X215.033 Y235.482 E0.06074
G1 X214.371 Y235.523 E0.07445
G1 X213.995 Y235.531 E0.04222
G1 X213.419 Y235.493 E0.0648
G1 X212.721 Y235.4 E0.07904
G1 X209.966 Y235.072 E0.31144
G1 X207.319 Y234.833 E0.29834
G1 X204.603 Y234.664 E0.30547
G1 X201.881 Y234.573 E0.30572
G1 X199.193 Y234.558 E0.30174
G1 X196.466 Y234.621 E0.3062
G1 X193.788 Y234.758 E0.30101
G1 X191.109 Y234.971 E0.30167
G1 X187.885 Y235.328 E0.36412
G1 X186.596 Y235.492 E0.14586
G1 X185.968 Y235.526 E0.0706
G1 X185.687 Y235.518 E0.03156
G1 X184.887 Y235.472 E0.08995
G1 X184.358 Y235.427 E0.0596
G1 X184.233 Y235.414 E0.01411
G1 X183.505 Y235.326 E0.08232
G1 X182.811 Y235.228 E0.07868
G1 X182.275 Y235.136 E0.06105
G1 X181.421 Y234.969 E0.09768
G1 X181.007 Y234.876 E0.04763
G1 X180.376 Y234.72 E0.07296
G1 X179.479 Y234.472 E0.10447
G1 X178.987 Y234.324 E0.05767
G1 X178.475 Y234.156 E0.06049
G1 X177.612 Y233.848 E0.10286
G1 X177.146 Y233.668 E0.05608
G1 X176.305 Y233.318 E0.10225
G1 X175.876 Y233.125 E0.05281
G1 X175.188 Y232.798 E0.08551
G1 X174.666 Y232.533 E0.06571
G1 X174.093 Y232.225 E0.07302
G1 X173.977 Y232.16 E0.01493
G1 X173.314 Y231.776 E0.08601
G1 X172.732 Y231.423 E0.07641
G1 X172.332 Y231.166 E0.05337
G1 X171.543 Y230.631 E0.10701
G1 X171.217 Y230.396 E0.04511
G1 X170.474 Y229.836 E0.10444
G1 X170.11 Y229.546 E0.05224
G1 X169.371 Y228.928 E0.10814
G1 X169.141 Y228.725 E0.03444
G1 X168.495 Y228.134 E0.09828
G1 X168.113 Y227.765 E0.05962
G1 X167.453 Y227.093 E0.10573
G1 X167.171 Y226.791 E0.04638
G1 X166.472 Y226.006 E0.11799
G1 X166.288 Y225.787 E0.03211
G1 X165.642 Y224.989 E0.11525
G1 X165.418 Y224.694 E0.04158
G1 X164.927 Y224.023 E0.09333
G1 X164.594 Y223.541 E0.06576
G1 X164.053 Y222.717 E0.11065
G1 X163.907 Y222.482 E0.03106
G1 X163.406 Y221.634 E0.11056
G1 X163.166 Y221.203 E0.05538
G1 X162.691 Y220.3 E0.11453
G1 X162.562 Y220.037 E0.03288
G1 X162.216 Y219.3 E0.09139
G1 X161.992 Y218.787 E0.06284
G1 X161.619 Y217.877 E0.1104
G1 X161.491 Y217.541 E0.04036
G1 X161.186 Y216.69 E0.10148
G1 X161.03 Y216.215 E0.05612
G1 X160.761 Y215.325 E0.10437
G1 X160.656 Y214.943 E0.04447
G1 X160.41 Y213.965 E0.1132
G1 X160.325 Y213.586 E0.0436
G1 X160.126 Y212.597 E0.11324
G1 X160.068 Y212.265 E0.03783
G1 X159.906 Y211.2 E0.12092
G1 X159.867 Y210.881 E0.03608
G1 X159.766 Y209.907 E0.10992
G1 X159.734 Y209.501 E0.04572
G1 X159.676 Y208.442 E0.11905
G1 X159.665 Y208.067 E0.04211
G1 X159.65 Y206.876 E0.1337
G1 X159.65 Y160.624 E5.19192
G1 X159.659 Y159.935 E0.07735
G1 X159.707 Y159.348 E0.06611
G1 X159.834 Y158.772 E0.06621
G1 X160.037 Y158.218 E0.06623
G1 X160.313 Y157.698 E0.06608
G1 X160.658 Y157.219 E0.06626
G1 X161.063 Y156.791 E0.06614
G0 F3600 X161.543 Y157.579
G1 F4500 X161.938 Y157.233 E0.05895
G1 X162.381 Y156.95 E0.05901
G1 X162.861 Y156.739 E0.05886
G1 X163.368 Y156.602 E0.05895
G1 X163.907 Y156.544 E0.06085
G1 X164.314 Y156.533 E0.0457
G1 X186.371 Y156.533 E2.47596
G1 X187.047 Y156.543 E0.07589
G1 X187.701 Y156.605 E0.07374
G1 X190.433 Y156.915 E0.30864
G1 X193.194 Y157.149 E0.31104
G1 X195.862 Y157.301 E0.29998
G1 X198.633 Y157.378 E0.31117
G1 X201.338 Y157.378 E0.30364
G1 X204.11 Y157.3 E0.31129
G1 X206.776 Y157.148 E0.29975
G1 X209.535 Y156.913 E0.31083
G1 X211.181 Y156.714 E0.18611
G1 X211.388 Y156.705 E0.02326
G1 X212.619 Y156.564 E0.13909
G1 X213.212 Y156.535 E0.06665
G1 X213.314 Y156.533 E0.01145
G1 X235.34 Y156.532 E2.47248
G1 X236.039 Y156.542 E0.07847
G1 X236.562 Y156.59 E0.05896
G1 X237.072 Y156.716 E0.05897
G1 X237.556 Y156.918 E0.05887
G1 X238.005 Y157.191 E0.05899
G1 X238.406 Y157.529 E0.05887
G1 X238.752 Y157.924 E0.05895
G1 X239.034 Y158.367 E0.05895
G1 X239.245 Y158.848 E0.05896
G1 X239.381 Y159.355 E0.05892
G1 X239.439 Y159.895 E0.06097
G1 X239.45 Y160.347 E0.05075
G1 X239.45 Y206.816 E5.21628
G1 X239.436 Y208.003 E0.13325
G1 X239.398 Y208.983 E0.11009
G1 X239.373 Y209.372 E0.04376
G1 X239.292 Y210.313 E0.10602
G1 X239.251 Y210.681 E0.04156
G1 X239.136 Y211.543 E0.09762
G1 X239.066 Y211.987 E0.05046
G1 X238.883 Y212.988 E0.11423
G1 X238.824 Y213.268 E0.03212
G1 X238.585 Y214.297 E0.11858
G1 X238.502 Y214.613 E0.03668
G1 X238.249 Y215.505 E0.10408
G1 X238.136 Y215.87 E0.04289
G1 X237.844 Y216.739 E0.10291
G1 X237.697 Y217.146 E0.04858
G1 X237.324 Y218.096 E0.11457
G1 X237.228 Y218.323 E0.02767
G1 X236.819 Y219.243 E0.11302
G1 X236.672 Y219.551 E0.03831
G1 X236.211 Y220.464 E0.11481
G1 X236.068 Y220.729 E0.0338
G1 X235.628 Y221.508 E0.10043
G1 X235.402 Y221.885 E0.04934
G1 X234.865 Y222.734 E0.11277
G1 X234.688 Y222.999 E0.03577
G1 X234.123 Y223.802 E0.11022
G1 X233.921 Y224.074 E0.03803
G1 X233.314 Y224.854 E0.11095
G1 X233.115 Y225.098 E0.03534
G1 X232.482 Y225.834 E0.10897
G1 X232.199 Y226.148 E0.04745
G1 X231.573 Y226.807 E0.10203
G1 X231.341 Y227.037 E0.03667
G1 X230.649 Y227.701 E0.10766
G1 X230.345 Y227.978 E0.04617
G1 X229.682 Y228.553 E0.09851
G1 X229.352 Y228.823 E0.04786
G1 X228.604 Y229.409 E0.10666
G1 X228.326 Y229.615 E0.03884
G1 X227.586 Y230.139 E0.10178
G1 X227.25 Y230.364 E0.04539
G1 X226.514 Y230.833 E0.09797
G1 X226.107 Y231.077 E0.05327
G1 X225.34 Y231.51 E0.09887
G1 X224.971 Y231.707 E0.04695
G1 X224.13 Y232.129 E0.10562
G1 X223.803 Y232.282 E0.04053
G1 X223.105 Y232.591 E0.08569
G1 X222.622 Y232.79 E0.05864
G1 X221.825 Y233.096 E0.09583
G1 X221.379 Y233.254 E0.05311
G1 X220.52 Y233.534 E0.10142
G1 X220.118 Y233.653 E0.04706
G1 X219.228 Y233.894 E0.1035
G1 X218.909 Y233.971 E0.03684
G1 X218.107 Y234.147 E0.09217
G1 X217.569 Y234.249 E0.06147
G1 X216.744 Y234.385 E0.09386
G1 X216.281 Y234.448 E0.05245
G1 X215.395 Y234.547 E0.10008
G1 X214.977 Y234.583 E0.0471
G1 X214.315 Y234.624 E0.07445
G1 X213.538 Y234.601 E0.08726
G1 X212.797 Y234.502 E0.08392
G1 X210.085 Y234.179 E0.30658
G1 X207.352 Y233.932 E0.30804
G1 X204.652 Y233.765 E0.30366
G1 X201.915 Y233.673 E0.30741
G1 X199.176 Y233.658 E0.30747
G1 X196.472 Y233.72 E0.30361
G1 X193.703 Y233.862 E0.31124
G1 X191.005 Y234.077 E0.30382
G1 X187.793 Y234.432 E0.36275
G1 X186.482 Y234.599 E0.14835
G1 X185.874 Y234.624 E0.06831
G1 X185.739 Y234.619 E0.01516
G1 X184.939 Y234.573 E0.08995
G1 X184.438 Y234.53 E0.05645
G1 X184.339 Y234.52 E0.01117
G1 X183.629 Y234.435 E0.08027
G1 X183.056 Y234.355 E0.06494
G1 X182.447 Y234.253 E0.06931
G1 X181.615 Y234.09 E0.09517
G1 X181.223 Y234.002 E0.0451
G1 X180.497 Y233.821 E0.08399
G1 X179.738 Y233.61 E0.08843
G1 X179.246 Y233.462 E0.05767
G1 X178.677 Y233.274 E0.06727
G1 X177.84 Y232.973 E0.09985
G1 X177.491 Y232.837 E0.04205
G1 X176.671 Y232.496 E0.09969
G1 X176.262 Y232.312 E0.05034
G1 X175.486 Y231.942 E0.0965
G1 X175.093 Y231.74 E0.0496
G1 X174.52 Y231.432 E0.07302
G1 X173.835 Y231.038 E0.08871
G1 X173.29 Y230.71 E0.0714
G1 X172.836 Y230.42 E0.06047
G1 X172.067 Y229.899 E0.10427
G1 X171.758 Y229.676 E0.04278
G1 X171.033 Y229.13 E0.10188
G1 X170.687 Y228.855 E0.04961
G1 X169.965 Y228.251 E0.10567
G1 X169.748 Y228.06 E0.03245
G1 X169.031 Y227.403 E0.10916
G1 X168.754 Y227.133 E0.04342
G1 X168.109 Y226.477 E0.10327
G1 X167.842 Y226.192 E0.04384
G1 X167.218 Y225.493 E0.10518
G1 X166.986 Y225.219 E0.0403
G1 X166.421 Y224.523 E0.10063
G1 X166.145 Y224.162 E0.05101
G1 X165.601 Y223.417 E0.10355
G1 X165.346 Y223.046 E0.05053
G1 X164.816 Y222.241 E0.10819
G1 X164.682 Y222.023 E0.02872
G1 X164.191 Y221.193 E0.10825
G1 X163.962 Y220.783 E0.05272
G1 X163.543 Y219.989 E0.10078
G1 X163.377 Y219.654 E0.04197
G1 X162.992 Y218.831 E0.10199
G1 X162.825 Y218.445 E0.04721
G1 X162.415 Y217.443 E0.12153
G1 X162.338 Y217.237 E0.02469
G1 X162.033 Y216.386 E0.10148
G1 X161.892 Y215.954 E0.05101
G1 X161.599 Y214.981 E0.11407
G1 X161.528 Y214.723 E0.03004
G1 X161.308 Y213.853 E0.10073
G1 X161.208 Y213.409 E0.05109
G1 X160.991 Y212.327 E0.12388
G1 X160.958 Y212.128 E0.02264
G1 X160.799 Y211.087 E0.11821
G1 X160.762 Y210.788 E0.03382
G1 X160.654 Y209.733 E0.11905
G1 X160.632 Y209.451 E0.03175
G1 X160.579 Y208.505 E0.10636
G1 X160.565 Y208.055 E0.05054
G1 X160.55 Y206.864 E0.1337
G1 X160.55 Y160.636 E5.18923
G1 X160.559 Y159.947 E0.07735
G1 X160.606 Y159.424 E0.05894
G1 X160.732 Y158.914 E0.05897
G1 X160.933 Y158.43 E0.05883
G1 X161.206 Y157.981 E0.05899
G1 X161.543 Y157.579 E0.05888
G1 F3000 E-8
G1 F600 Z0.55
;MESH:roundPhoneDock.stl
G0 F3600 X185.65 Y229.628 Z0.55
;TYPE:WALL-INNER
G1 F600 Z0.3
G1 F3000 E8
G1 F4500 X185.474 Y229.806 E0.0281
G1 X184.901 Y229.763 E0.0645
G1 X183.842 Y229.628 E0.11984
G1 X182.78 Y229.437 E0.12113
G1 X181.751 Y229.198 E0.11858
G1 X180.729 Y228.905 E0.11934
G1 X179.721 Y228.559 E0.11963
G1 X178.738 Y228.167 E0.11879
G1 X177.75 Y227.714 E0.12201
G1 X176.833 Y227.237 E0.11603
G1 X175.887 Y226.683 E0.12306
G1 X174.99 Y226.095 E0.1204
G1 X174.126 Y225.464 E0.1201
G1 X173.261 Y224.763 E0.12498
G1 X172.476 Y224.064 E0.11799
G1 X171.716 Y223.314 E0.11986
G1 X170.947 Y222.476 E0.12767
G1 X170.275 Y221.669 E0.11788
G1 X169.635 Y220.819 E0.11944
G1 X169.003 Y219.888 E0.12631
G1 X168.431 Y218.954 E0.12294
G1 X167.912 Y218.003 E0.12162
G1 X167.434 Y217.022 E0.1225
G1 X166.994 Y215.989 E0.12604
G1 X166.617 Y214.977 E0.12123
G1 X166.277 Y213.906 E0.12614
G1 X166.001 Y212.873 E0.12002
G1 X165.765 Y211.775 E0.12607
G1 X165.585 Y210.694 E0.12302
G1 X165.454 Y209.597 E0.12402
G1 X165.377 Y208.486 E0.12501
G1 X165.35 Y207.385 E0.12363
G1 X165.35 Y161.333 E5.16947
G1 X185.65 Y161.333 E2.27874
G1 X185.65 Y229.628 E7.66632
G0 F3600 X186.55 Y229.998
;TYPE:WALL-OUTER
G1 F4500 X185.822 Y230.734 E0.11621
G1 X184.8 Y230.657 E0.11505
G1 X183.705 Y230.518 E0.1239
G1 X182.593 Y230.318 E0.12683
G1 X181.535 Y230.072 E0.12193
G1 X180.462 Y229.764 E0.12531
G1 X179.405 Y229.402 E0.12542
G1 X178.376 Y228.992 E0.12434
G1 X177.361 Y228.526 E0.12537
G1 X176.389 Y228.02 E0.12301
G1 X175.419 Y227.452 E0.12618
G1 X174.484 Y226.839 E0.1255
G1 X173.571 Y226.173 E0.12686
G1 X172.675 Y225.447 E0.12945
G1 X171.861 Y224.721 E0.12244
G1 X171.067 Y223.938 E0.12518
G1 X170.284 Y223.085 E0.12998
G1 X169.567 Y222.225 E0.12569
G1 X168.893 Y221.33 E0.12577
G1 X168.248 Y220.38 E0.1289
G1 X167.656 Y219.413 E0.12727
G1 X167.113 Y218.417 E0.12734
G1 X166.613 Y217.391 E0.12812
G1 X166.166 Y216.342 E0.128
G1 X165.761 Y215.255 E0.13021
G1 X165.419 Y214.179 E0.12674
G1 X165.124 Y213.077 E0.12806
G1 X164.88 Y211.94 E0.13054
G1 X164.693 Y210.821 E0.12735
G1 X164.558 Y209.683 E0.12864
G1 X164.477 Y208.527 E0.13008
G1 X164.45 Y207.407 E0.12576
G1 X164.45 Y160.433 E5.27297
G1 X186.55 Y160.433 E2.48079
G1 X186.55 Y229.998 E7.80888
G0 F3600 X186.427 Y230.122
G0 X185.558 Y229.59
G0 X184.76 Y228.849
;TYPE:SKIN
G1 F4500 X183.995 Y228.751 E0.08658
G1 X182.959 Y228.565 E0.11815
G1 X181.975 Y228.336 E0.11341
G1 X180.994 Y228.055 E0.11455
G1 X180.035 Y227.725 E0.11385
G1 X179.079 Y227.344 E0.11552
G1 X178.134 Y226.911 E0.11668
G1 X177.264 Y226.458 E0.11011
G1 X176.353 Y225.924 E0.11854
G1 X175.49 Y225.359 E0.11579
G1 X174.679 Y224.766 E0.11278
G1 X173.837 Y224.084 E0.12163
G1 X173.076 Y223.406 E0.11441
G1 X172.368 Y222.708 E0.1116
G1 X171.61 Y221.882 E0.12585
G1 X170.969 Y221.112 E0.11246
G1 X170.361 Y220.305 E0.11342
G1 X169.755 Y219.412 E0.12114
G1 X169.202 Y218.507 E0.11905
G1 X168.71 Y217.607 E0.11514
G1 X168.235 Y216.632 E0.12174
G1 X167.82 Y215.658 E0.11885
G1 X167.451 Y214.666 E0.11881
G1 X167.135 Y213.668 E0.11751
G1 X166.861 Y212.643 E0.1191
G1 X166.64 Y211.612 E0.11836
G1 X166.465 Y210.561 E0.1196
G1 X166.338 Y209.492 E0.12084
G1 X166.267 Y208.448 E0.11746
G1 X166.24 Y207.385 E0.11936
G1 X166.24 Y162.223 E5.06957
G1 X184.76 Y162.223 E2.07892
G1 X184.76 Y228.849 E7.47897
G0 F3600 X167.4 Y213.032
G1 F4500 X167.4 Y162.643 E5.65631
G0 F3600 X168.3 Y162.643
G1 F4500 X168.3 Y215.713 E5.95726
G1 X168.3 Y215.863
G0 F3600 X169.2 Y217.627
G1 F4500 X169.2 Y162.643 E6.17212
G0 F3600 X170.1 Y162.643
G1 F4500 X170.1 Y219.17 E6.34532
G0 F3600 X171 Y220.455
G1 F4500 X171 Y162.643 E6.48957
G0 F3600 X171.9 Y162.643
G1 F4500 X171.9 Y221.574 E6.61518
G0 F3600 X172.8 Y222.545
G1 F4500 X172.8 Y162.643 E6.72418
G0 F3600 X173.7 Y162.643
G1 F4500 X173.7 Y223.399 E6.82004
G0 F3600 X174.6 Y224.161
G1 F4500 X174.6 Y162.643 E6.90558
G0 F3600 X175.5 Y162.643
G1 F4500 X175.5 Y224.846 E6.98247
G0 F3600 X176.4 Y225.453
G1 F4500 X176.4 Y162.643 E7.05061
G0 F3600 X177.3 Y162.643
G1 F4500 X177.3 Y225.992 E7.11111
G0 F3600 X178.2 Y226.471
G1 F4500 X178.2 Y162.643 E7.16488
G0 F3600 X179.1 Y162.643
G1 F4500 X179.1 Y226.892 E7.21214
G0 F3600 X180 Y227.258
G1 F4500 X180 Y162.643 E7.25322
G0 F3600 X180.9 Y162.643
G1 F4500 X180.9 Y227.578 E7.28915
G0 F3600 X181.8 Y227.848
G1 F4500 X181.8 Y162.643 E7.31945
G0 F3600 X182.7 Y162.643
G1 F4500 X182.7 Y228.073 E7.34471
G0 F3600 X183.6 Y228.253
G1 F4500 X183.6 Y162.643 E7.36492
G1 X183.6 Y162.493
G1 F3000 E-8
G1 F600 Z0.55
