;FLAVOR:RepRap
;TIME:5071
;Filament used: 7.38603m, 0m
;Layer height: 0.3
;MINX:123.066
;MINY:127.244
;MINZ:0.3
;MAXX:201.75
;MAXY:204.257
;MAXZ:132.3
;Generated with Cura_SteamEngine master
T0
M190 S60
M104 S235
M109 S235
M82 ;absolute extrusion mode
; Starting G-code:  
G1 Z15.0 F6000 ;Move the platform down 15mm  
;Prime the extruder  
G92 E0  
G1 F200 E3  
G92 E0
M83 ;relative extrusion mode
G1 F3000 E-8
;LAYER_COUNT:442
;LAYER:0
M107
G1 F600 Z0.55
G0 F3600 X148.086 Y128.656 Z0.55
;TYPE:SKIRT
G1 F600 Z0.3
G1 F3000 E8
G1 F1200 X148.514 Y128.25 E0.06622
G1 X148.993 Y127.906 E0.0662
G1 X149.514 Y127.63 E0.06618
G1 X150.067 Y127.427 E0.06613
G1 X150.643 Y127.3 E0.06621
G1 X151.161 Y127.254 E0.05838
G1 X151.615 Y127.244 E0.05098
G1 X152.382 Y127.253 E0.0861
G1 X152.678 Y127.267 E0.03326
G1 X153.261 Y127.352 E0.06614
G1 X153.828 Y127.515 E0.06623
G1 X154.367 Y127.753 E0.06614
G1 X154.869 Y128.062 E0.06617
G1 X155.325 Y128.436 E0.0662
G1 X155.806 Y128.97 E0.08068
G1 X156.529 Y129.921 E0.1341
G1 X156.822 Y130.317 E0.0553
G1 X158.478 Y132.43 E0.30135
G1 X160.215 Y134.521 E0.30514
G1 X162.014 Y136.566 E0.30574
G1 X163.844 Y138.532 E0.3015
G1 X165.762 Y140.478 E0.30671
G1 X167.678 Y142.316 E0.29804
G1 X169.722 Y144.167 E0.30954
G1 X171.773 Y145.922 E0.30301
G1 X173.845 Y147.597 E0.29908
G1 X176.029 Y149.261 E0.30821
G1 X178.215 Y150.833 E0.30225
G1 X178.867 Y151.274 E0.08836
G1 X179.762 Y151.898 E0.12247
G1 X180.222 Y152.267 E0.0662
G1 X180.627 Y152.695 E0.06614
G1 X180.971 Y153.174 E0.0662
G1 X181.247 Y153.695 E0.06618
G1 X181.413 Y154.129 E0.05216
G1 X181.867 Y155.534 E0.16574
G1 X181.94 Y155.77 E0.02773
G1 X182.824 Y158.372 E0.30848
G1 X183.751 Y160.861 E0.29815
G1 X184.773 Y163.389 E0.30609
G1 X185.856 Y165.861 E0.30295
G1 X187.008 Y168.301 E0.30289
G1 X188.232 Y170.716 E0.30392
G1 X189.532 Y173.109 E0.3057
G1 X190.888 Y175.447 E0.30339
G1 X192.307 Y177.742 E0.30289
G1 X193.789 Y179.992 E0.30243
G1 X195.343 Y182.212 E0.30419
G1 X196.953 Y184.378 E0.30295
G1 X199.324 Y187.349 E0.42669
G1 X199.431 Y187.489 E0.01978
G1 X199.946 Y188.191 E0.09773
G1 X200.126 Y188.45 E0.03541
G1 X200.386 Y188.886 E0.05698
G1 X200.762 Y189.608 E0.09138
G1 X200.88 Y189.85 E0.03022
G1 X201.068 Y190.316 E0.05641
G1 X201.319 Y191.059 E0.08803
G1 X201.523 Y191.837 E0.09029
G1 X201.647 Y192.544 E0.08057
G1 X201.692 Y192.843 E0.03394
G1 X201.735 Y193.379 E0.06036
G1 X201.75 Y194.165 E0.08825
G1 X201.748 Y194.439 E0.03076
G1 X201.71 Y194.947 E0.05718
G1 X201.609 Y195.695 E0.08473
G1 X201.557 Y196.017 E0.03661
G1 X201.439 Y196.526 E0.05865
G1 X201.239 Y197.201 E0.07903
G1 X201.149 Y197.48 E0.03291
G1 X200.952 Y197.975 E0.0598
G1 X200.606 Y198.709 E0.09109
G1 X200.226 Y199.384 E0.08695
G1 X199.8 Y200.015 E0.08546
G1 X199.301 Y200.654 E0.09101
G1 X198.789 Y201.208 E0.08468
G1 X198.589 Y201.414 E0.03223
G1 X198.203 Y201.76 E0.05819
G1 X197.605 Y202.235 E0.08573
G1 X197.349 Y202.427 E0.03592
G1 X196.926 Y202.702 E0.05664
G1 X196.316 Y203.05 E0.07883
G1 X195.489 Y203.455 E0.10337
G1 X195.039 Y203.626 E0.05404
G1 X194.525 Y203.8 E0.06091
G1 X194.043 Y203.933 E0.05613
G1 X193.358 Y204.08 E0.07864
G1 X193.018 Y204.144 E0.03884
G1 X192.496 Y204.205 E0.05899
G1 X191.621 Y204.253 E0.09837
G1 X191.465 Y204.257 E0.01752
G1 X190.935 Y204.238 E0.05953
G1 X190.179 Y204.165 E0.08526
G1 X189.902 Y204.131 E0.03133
G1 X189.381 Y204.032 E0.05953
G1 X188.527 Y203.813 E0.09897
G1 X188.399 Y203.777 E0.01493
G1 X187.87 Y203.59 E0.06298
G1 X187.174 Y203.293 E0.08494
G1 X186.453 Y202.926 E0.09082
G1 X185.815 Y202.531 E0.08423
G1 X185.296 Y202.178 E0.07046
G1 X184.935 Y201.906 E0.05074
G1 X182.702 Y200.272 E0.3106
G1 X180.471 Y198.739 E0.30386
G1 X178.223 Y197.282 E0.30071
G1 X175.857 Y195.844 E0.3108
G1 X173.552 Y194.529 E0.29789
G1 X171.163 Y193.255 E0.30392
G1 X168.725 Y192.043 E0.30562
G1 X166.279 Y190.911 E0.30255
G1 X163.802 Y189.85 E0.30248
G1 X161.225 Y188.829 E0.31115
G1 X158.737 Y187.927 E0.29707
G1 X156.165 Y187.075 E0.30414
G1 X153.583 Y186.3 E0.30261
G1 X152.613 Y186.041 E0.1127
G1 X152.511 Y186.006 E0.01211
G1 X151.198 Y185.644 E0.15289
G1 X150.642 Y185.449 E0.06614
G1 X150.117 Y185.181 E0.06617
G1 X149.633 Y184.844 E0.0662
G1 X149.199 Y184.445 E0.06618
G1 X148.894 Y184.086 E0.05288
G1 X148.069 Y183.002 E0.15291
G1 X147.796 Y182.634 E0.05144
G1 X146.138 Y180.524 E0.30123
G1 X144.395 Y178.433 E0.30557
G1 X142.597 Y176.392 E0.30533
G1 X140.754 Y174.418 E0.30315
G1 X138.886 Y172.528 E0.2983
G1 X136.893 Y170.621 E0.30964
G1 X134.904 Y168.824 E0.3009
G1 X132.831 Y167.055 E0.30591
G1 X130.725 Y165.357 E0.30367
G1 X128.583 Y163.731 E0.30188
G1 X126.38 Y162.151 E0.30432
G1 X125.743 Y161.719 E0.0864
G1 X124.939 Y161.159 E0.10999
G1 X124.479 Y160.791 E0.06613
G1 X124.073 Y160.363 E0.06622
G1 X123.729 Y159.884 E0.0662
G1 X123.453 Y159.363 E0.06618
G1 X123.25 Y158.81 E0.06613
G1 X123.123 Y158.234 E0.06621
G1 X123.077 Y157.731 E0.0567
G1 X123.066 Y157.127 E0.06781
G1 X123.076 Y156.466 E0.07421
G1 X123.125 Y155.879 E0.06612
G1 X123.253 Y155.303 E0.06623
G1 X123.458 Y154.75 E0.0662
G1 X123.735 Y154.23 E0.06614
G1 X124.08 Y153.752 E0.06617
G1 X124.487 Y153.325 E0.06622
G1 X124.791 Y153.071 E0.04447
G1 X125.76 Y152.333 E0.13673
G1 X126.157 Y152.04 E0.05539
G1 X128.273 Y150.381 E0.30183
G1 X130.341 Y148.664 E0.30172
G1 X132.371 Y146.878 E0.30351
G1 X134.355 Y145.031 E0.30428
G1 X136.3 Y143.114 E0.30655
G1 X138.139 Y141.197 E0.2982
G1 X139.989 Y139.154 E0.30939
G1 X141.744 Y137.103 E0.30301
G1 X143.419 Y135.031 E0.29908
G1 X145.083 Y132.847 E0.30821
G1 X146.661 Y130.652 E0.30346
G1 X147.119 Y129.976 E0.09166
G1 X147.718 Y129.116 E0.11765
G1 X148.086 Y128.656 E0.06613
G0 F3600 X148.788 Y129.223
G1 F1200 X149.178 Y128.872 E0.0589
G1 X149.616 Y128.583 E0.0589
G1 X150.094 Y128.365 E0.05897
G1 X150.599 Y128.221 E0.05895
G1 X151.187 Y128.153 E0.06644
G1 X151.604 Y128.144 E0.04682
G1 X152.371 Y128.153 E0.0861
G1 X152.609 Y128.164 E0.02674
G1 X153.127 Y128.244 E0.05884
G1 X153.628 Y128.402 E0.05897
G1 X154.099 Y128.634 E0.05894
G1 X154.529 Y128.935 E0.05892
G1 X154.909 Y129.297 E0.05891
G1 X155.089 Y129.515 E0.03173
G1 X155.805 Y130.456 E0.13273
G1 X156.106 Y130.862 E0.05673
G1 X157.783 Y133.003 E0.30528
G1 X159.532 Y135.108 E0.30721
G1 X161.334 Y137.156 E0.30622
G1 X163.197 Y139.158 E0.30698
G1 X165.116 Y141.105 E0.30687
G1 X167.087 Y142.995 E0.30653
G1 X169.095 Y144.814 E0.30414
G1 X171.206 Y146.62 E0.31185
G1 X173.313 Y148.324 E0.30418
G1 X175.474 Y149.971 E0.305
G1 X177.692 Y151.565 E0.3066
G1 X178.352 Y152.012 E0.08948
G1 X179.247 Y152.636 E0.12247
G1 X179.654 Y152.968 E0.05896
G1 X180.005 Y153.358 E0.0589
G1 X180.293 Y153.797 E0.05894
G1 X180.557 Y154.406 E0.07451
G1 X181.007 Y155.8 E0.16443
G1 X181.082 Y156.041 E0.02833
G1 X181.971 Y158.66 E0.31047
G1 X182.912 Y161.185 E0.30248
G1 X183.945 Y163.741 E0.30946
G1 X185.043 Y166.247 E0.30712
G1 X186.202 Y168.704 E0.30495
G1 X187.436 Y171.137 E0.30623
G1 X188.737 Y173.533 E0.30605
G1 X190.11 Y175.898 E0.30697
G1 X191.55 Y178.227 E0.30737
G1 X193.049 Y180.504 E0.30602
G1 X194.616 Y182.742 E0.30668
G1 X196.233 Y184.918 E0.30432
G1 X198.621 Y187.91 E0.42972
G1 X198.706 Y188.021 E0.01569
G1 X199.221 Y188.723 E0.09773
G1 X199.588 Y189.301 E0.07686
G1 X199.964 Y190.023 E0.09138
G1 X200.216 Y190.604 E0.07109
G1 X200.467 Y191.347 E0.08803
G1 X200.636 Y191.992 E0.07485
G1 X200.777 Y192.804 E0.09251
G1 X200.835 Y193.396 E0.06677
G1 X200.85 Y194.182 E0.08825
G1 X200.818 Y194.827 E0.07249
G1 X200.717 Y195.575 E0.08473
G1 X200.576 Y196.27 E0.07961
G1 X200.376 Y196.945 E0.07903
G1 X200.138 Y197.591 E0.07728
G1 X199.792 Y198.325 E0.09109
G1 X199.48 Y198.88 E0.07147
G1 X199.054 Y199.511 E0.08546
G1 X198.64 Y200.044 E0.07576
G1 X198.128 Y200.598 E0.08468
G1 X197.643 Y201.055 E0.0748
G1 X197.045 Y201.53 E0.08573
G1 X196.48 Y201.921 E0.07713
G1 X195.87 Y202.269 E0.07883
G1 X195.162 Y202.617 E0.08856
G1 X194.75 Y202.774 E0.04949
G1 X194.236 Y202.948 E0.06091
G1 X193.854 Y203.053 E0.04447
G1 X193.054 Y203.223 E0.09181
G1 X192.445 Y203.306 E0.06899
G1 X191.597 Y203.353 E0.09534
G1 X191.021 Y203.342 E0.06467
G1 X190.157 Y203.257 E0.09745
G1 X189.604 Y203.16 E0.06302
G1 X188.771 Y202.946 E0.09654
G1 X188.223 Y202.762 E0.06489
G1 X187.527 Y202.465 E0.08494
G1 X186.927 Y202.16 E0.07555
G1 X186.289 Y201.765 E0.08423
G1 X185.837 Y201.459 E0.06127
G1 X185.466 Y201.18 E0.05211
G1 X183.22 Y199.537 E0.31238
G1 X180.972 Y197.991 E0.30626
G1 X178.682 Y196.507 E0.30632
G1 X176.34 Y195.084 E0.30762
G1 X173.964 Y193.728 E0.30709
G1 X171.571 Y192.453 E0.30437
G1 X169.129 Y191.238 E0.30618
G1 X166.639 Y190.086 E0.30797
G1 X164.142 Y189.016 E0.30495
G1 X161.547 Y187.989 E0.31328
G1 X159.042 Y187.08 E0.29913
G1 X156.423 Y186.212 E0.30972
G1 X153.819 Y185.431 E0.30517
G1 X152.845 Y185.171 E0.11316
G1 X152.769 Y185.144 E0.00905
G1 X151.437 Y184.777 E0.15509
G1 X150.943 Y184.599 E0.05894
G1 X150.482 Y184.348 E0.05892
G1 X150.064 Y184.031 E0.05889
G1 X149.61 Y183.541 E0.07498
G1 X148.792 Y182.466 E0.15163
G1 X148.524 Y182.104 E0.05056
G1 X146.817 Y179.933 E0.31001
G1 X145.074 Y177.841 E0.30566
G1 X143.294 Y175.821 E0.30223
G1 X141.397 Y173.789 E0.31205
G1 X139.494 Y171.863 E0.30393
G1 X137.52 Y169.975 E0.30662
G1 X135.473 Y168.125 E0.30972
G1 X133.419 Y166.372 E0.30312
G1 X131.31 Y164.673 E0.30401
G1 X129.111 Y163.003 E0.30996
G1 X126.868 Y161.394 E0.30987
G1 X126.257 Y160.981 E0.08279
G1 X125.453 Y160.421 E0.10999
G1 X125.046 Y160.089 E0.05896
G1 X124.695 Y159.699 E0.0589
G1 X124.406 Y159.261 E0.0589
G1 X124.188 Y158.783 E0.05897
G1 X124.044 Y158.278 E0.05895
G1 X123.977 Y157.702 E0.06509
G1 X123.966 Y157.141 E0.06299
G1 X123.976 Y156.48 E0.07421
G1 X124.024 Y155.957 E0.05896
G1 X124.151 Y155.448 E0.05889
G1 X124.353 Y154.963 E0.05898
G1 X124.627 Y154.515 E0.05895
G1 X124.965 Y154.114 E0.05887
G1 X125.336 Y153.787 E0.05551
G1 X126.295 Y153.058 E0.13522
G1 X126.681 Y152.773 E0.05386
G1 X128.825 Y151.093 E0.30576
G1 X130.931 Y149.343 E0.30737
G1 X132.978 Y147.542 E0.30606
G1 X134.981 Y145.678 E0.30714
G1 X136.927 Y143.76 E0.30671
G1 X138.818 Y141.788 E0.30669
G1 X140.636 Y139.781 E0.30398
G1 X142.442 Y137.67 E0.31185
G1 X144.146 Y135.563 E0.30418
G1 X145.793 Y133.402 E0.305
G1 X147.393 Y131.176 E0.30773
G1 X147.857 Y130.49 E0.09297
G1 X148.456 Y129.63 E0.11765
G1 X148.788 Y129.223 E0.05896
G1 F3000 E-8
G1 F600 Z0.55
;MESH:rocket_v2_fins.stl
G0 F3600 X151.899 Y148.882 Z0.55
;TYPE:WALL-OUTER
G1 F600 Z0.3
G1 F3000 E8
G1 F1200 X151.731 Y148.882 E0.01886
G1 X151.731 Y132.043 E1.89023
G1 X151.899 Y132.044 E0.01886
G1 X151.899 Y148.882 E1.89012
G0 F3600 X151.731 Y148.882
G0 X151.731 Y148.8
G1 F3000 E-8
G1 F600 Z0.55
G0 F3600 X144.704 Y157.146 Z0.55
G1 F600 Z0.3
G1 F3000 E8
G1 F1200 X127.865 Y157.146 E1.89023
G1 X127.866 Y156.977 E0.01897
G1 X144.704 Y156.977 E1.89012
G1 X144.704 Y157.146 E0.01897
G0 F3600 X144.454 Y157.146
G1 F3000 E-8
G1 F600 Z0.55
G0 F3600 X151.576 Y161.909 Z0.55
G1 F600 Z0.3
G1 F3000 E8
G1 F1200 X152.356 Y161.964 E0.08777
G1 X153.13 Y161.907 E0.08712
G1 X153.888 Y161.742 E0.08708
G1 X154.614 Y161.469 E0.08707
G1 X155.293 Y161.096 E0.08696
G1 X155.915 Y160.631 E0.08718
G1 X156.462 Y160.082 E0.08699
G1 X156.926 Y159.46 E0.08711
G1 X157.297 Y158.779 E0.08705
G1 X157.567 Y158.053 E0.08695
G1 X157.731 Y157.301 E0.0864
G1 X157.785 Y156.519 E0.08799
G1 X157.73 Y155.747 E0.08688
G1 X157.564 Y154.989 E0.0871
G1 X157.291 Y154.262 E0.08717
G1 X156.918 Y153.582 E0.08706
G1 X156.453 Y152.962 E0.087
G1 X155.904 Y152.415 E0.08699
G1 X155.281 Y151.95 E0.08727
G1 X154.601 Y151.58 E0.0869
G1 X153.875 Y151.31 E0.08695
G1 X153.123 Y151.146 E0.0864
G1 X152.341 Y151.091 E0.088
G1 X151.569 Y151.148 E0.0869
G1 X150.811 Y151.313 E0.08708
G1 X150.084 Y151.586 E0.08717
G1 X149.405 Y151.958 E0.08691
G1 X148.783 Y152.424 E0.08724
G1 X148.236 Y152.973 E0.08699
G1 X147.772 Y153.595 E0.08711
G1 X147.401 Y154.275 E0.08695
G1 X147.132 Y155.002 E0.08702
G1 X146.967 Y155.754 E0.08642
G1 X146.913 Y156.534 E0.08777
G1 X146.969 Y157.308 E0.08711
G1 X147.135 Y158.066 E0.0871
G1 X147.407 Y158.792 E0.08703
G1 X147.78 Y159.472 E0.08706
G1 X148.245 Y160.093 E0.08709
G1 X148.794 Y160.641 E0.08707
G1 X149.417 Y161.104 E0.08713
G1 X150.097 Y161.475 E0.08695
G1 X150.824 Y161.745 E0.08705
G1 X151.576 Y161.909 E0.0864
G0 F3600 X151.825 Y161.926
G0 X151.817 Y162.025
G0 X153.131 Y163.051
G0 X153.142 Y163.15
G1 F1200 X152.343 Y163.198 E0.08985
G1 X151.544 Y163.149 E0.08986
G1 X150.745 Y163.002 E0.0912
G1 X149.973 Y162.761 E0.09078
G1 X149.244 Y162.433 E0.08973
G1 X148.555 Y162.015 E0.09046
G1 X147.918 Y161.514 E0.09097
G1 X147.355 Y160.95 E0.08946
G1 X146.855 Y160.309 E0.09126
G1 X146.441 Y159.624 E0.08985
G1 X146.109 Y158.885 E0.09094
G1 X145.872 Y158.119 E0.09001
G1 X145.726 Y157.32 E0.09118
G1 X145.678 Y156.519 E0.09008
G1 X145.727 Y155.722 E0.08963
G1 X145.875 Y154.918 E0.09177
G1 X146.114 Y154.157 E0.08954
G1 X146.444 Y153.423 E0.09034
G1 X146.862 Y152.734 E0.09046
G1 X147.362 Y152.097 E0.0909
G1 X147.926 Y151.534 E0.08946
G1 X148.567 Y151.033 E0.09132
G1 X149.252 Y150.619 E0.08985
G1 X149.992 Y150.287 E0.09104
G1 X150.758 Y150.05 E0.09001
G1 X151.557 Y149.904 E0.09118
G1 X152.355 Y149.856 E0.08974
G1 X153.155 Y149.905 E0.08997
G1 X153.959 Y150.053 E0.09177
G1 X154.72 Y150.292 E0.08954
G1 X155.454 Y150.622 E0.09034
G1 X156.143 Y151.04 E0.09046
G1 X156.78 Y151.541 E0.09097
G1 X157.343 Y152.105 E0.08946
G1 X157.843 Y152.746 E0.09126
G1 X158.257 Y153.431 E0.08985
G1 X158.589 Y154.17 E0.09094
G1 X158.826 Y154.936 E0.09001
G1 X158.972 Y155.735 E0.09118
G1 X159.02 Y156.533 E0.08974
G1 X158.971 Y157.333 E0.08997
G1 X158.823 Y158.137 E0.09177
G1 X158.584 Y158.898 E0.08954
G1 X158.254 Y159.632 E0.09034
G1 X157.836 Y160.321 E0.09046
G1 X157.336 Y160.958 E0.0909
G1 X156.772 Y161.521 E0.08946
G1 X156.131 Y162.022 E0.09132
G1 X155.446 Y162.436 E0.08985
G1 X154.707 Y162.768 E0.09094
G1 X153.942 Y163.004 E0.08987
G1 X153.142 Y163.15 E0.09129
G0 F3600 X152.893 Y163.165
G0 X152.88 Y162.828
G1 F3000 E-8
G1 F600 Z0.55
G0 F3600 X152.888 Y162.827 Z0.55
G0 X152.967 Y164.172
G1 F600 Z0.3
G1 F3000 E8
G1 F1200 X152.967 Y181.011 E1.89023
G1 X152.799 Y181.01 E0.01886
G1 X152.799 Y164.172 E1.89012
G1 X152.967 Y164.172 E0.01886
G0 F3600 X152.967 Y164.422
G1 F3000 E-8
G1 F600 Z0.55
G0 F3600 X176.832 Y156.077 Z0.55
G1 F600 Z0.3
G1 F3000 E8
G1 F1200 X159.994 Y156.077 E1.89012
G1 X159.994 Y155.909 E0.01886
G1 X176.833 Y155.909 E1.89023
G1 X176.832 Y156.077 E0.01886
G0 F3600 X176.582 Y156.077
G1 F3000 E-8
G1 F600 Z0.55
;MESH:rocket_v2.stl
G0 F3600 X190.884 Y198.558 Z0.55
;TYPE:WALL-OUTER
G1 F600 Z0.3
G1 F3000 E8
G1 F1200 X191.708 Y198.594 E0.09258
G1 X192.526 Y198.485 E0.09263
G1 X193.31 Y198.228 E0.09261
G1 X194.036 Y197.838 E0.09251
G1 X194.681 Y197.322 E0.09272
G1 X195.223 Y196.701 E0.09253
G1 X195.645 Y195.993 E0.09252
G1 X195.935 Y195.22 E0.09268
G1 X196.081 Y194.409 E0.0925
G1 X196.081 Y193.584 E0.09261
G1 X195.936 Y192.781 E0.0916
G1 X195.642 Y192 E0.09368
G1 X195.218 Y191.293 E0.09254
G1 X194.675 Y190.672 E0.0926
G1 X194.029 Y190.158 E0.09267
G1 X193.302 Y189.769 E0.09256
G1 X192.518 Y189.514 E0.09254
G1 X191.701 Y189.406 E0.09251
G1 X190.885 Y189.441 E0.09168
G1 X190.08 Y189.624 E0.09267
G1 X189.315 Y189.953 E0.09348
G1 X188.627 Y190.408 E0.09259
G1 X188.032 Y190.979 E0.09257
G1 X187.548 Y191.648 E0.09269
G1 X187.192 Y192.392 E0.09258
G1 X186.974 Y193.186 E0.09243
G1 X186.9 Y194 E0.09175
G1 X186.974 Y194.822 E0.09265
G1 X187.194 Y195.616 E0.09249
G1 X187.551 Y196.359 E0.09253
G1 X188.037 Y197.026 E0.09264
G1 X188.634 Y197.596 E0.09266
G1 X189.322 Y198.05 E0.09253
G1 X190.079 Y198.375 E0.09248
G1 X190.884 Y198.558 E0.09267
G0 F3600 X191.134 Y198.568
G0 X191.129 Y198.668
G0 X192.123 Y199.437
G1 F1200 X191.282 Y199.469 E0.09447
G1 X190.453 Y199.372 E0.09369
G1 X189.64 Y199.147 E0.09469
G1 X188.883 Y198.807 E0.09315
G1 X188.182 Y198.353 E0.09375
G1 X187.548 Y197.787 E0.0954
G1 X187.019 Y197.144 E0.09347
G1 X186.591 Y196.422 E0.09422
G1 X186.281 Y195.653 E0.09307
G1 X186.091 Y194.832 E0.0946
G1 X186.027 Y193.993 E0.09445
G1 X186.091 Y193.157 E0.09412
G1 X186.285 Y192.338 E0.09448
G1 X186.593 Y191.573 E0.09257
